(Exported by FreeCAD)
(Post Processor: grbl_post)
(Output Time:2026-07-12 13:43:00.887041)
(Begin preamble)
G17 G90
G21
(Begin operation: Fixture)
(Path: Fixture)
G54
(Finish operation: Fixture)
(Begin operation: TC: 5mm Endmill)
(Path: TC: 5mm Endmill)
(TC: 5mm Endmill)
(Begin toolchange)
( M6 T1 )
M3 S12000
(Finish operation: TC: 5mm Endmill)
(Begin operation: RoughContour)
(Path: RoughContour)
(RoughContour)
(Compensated Tool Path. Diameter: 6.0)
G0 Z5.000
G0 X77.993 Y41.029
G0 Z3.000
G1 X77.993 Y41.029 Z-1.000 F200.000
G2 X80.494 Y35.218 Z-1.000 I-5.999 J-6.026 K0.000 F800.000
G2 X80.500 Y5.002 Z-1.000 I-20364.625 J-19.410 K0.000 F800.000
G2 X72.000 Y-3.500 Z-1.000 I-8.509 J0.007 K0.000 F800.000
G1 X0.000 Y-3.500 Z-1.000 F800.000
G2 X-3.500 Y0.000 Z-1.000 I-0.000 J3.500 K0.000 F800.000
G1 X-3.500 Y40.050 Z-1.000 F800.000
G2 X0.000 Y43.550 Z-1.000 I3.500 J0.000 K0.000 F800.000
G1 X2.500 Y43.550 Z-1.000 F800.000
G3 X3.528 Y43.506 Z-1.000 I0.716 J4.739 K0.000 F800.000
G1 X72.000 Y43.506 Z-1.000 F800.000
G2 X77.993 Y41.029 Z-1.000 I-0.007 J-8.503 K0.000 F800.000
G1 X77.993 Y41.029 Z-2.000 F200.000
G2 X80.494 Y35.218 Z-2.000 I-5.999 J-6.026 K0.000 F800.000
G2 X80.500 Y5.002 Z-2.000 I-20364.625 J-19.410 K0.000 F800.000
G2 X72.000 Y-3.500 Z-2.000 I-8.509 J0.007 K0.000 F800.000
G1 X0.000 Y-3.500 Z-2.000 F800.000
G2 X-3.500 Y0.000 Z-2.000 I-0.000 J3.500 K0.000 F800.000
G1 X-3.500 Y40.050 Z-2.000 F800.000
G2 X0.000 Y43.550 Z-2.000 I3.500 J0.000 K0.000 F800.000
G1 X2.500 Y43.550 Z-2.000 F800.000
G3 X3.528 Y43.506 Z-2.000 I0.716 J4.739 K0.000 F800.000
G1 X72.000 Y43.506 Z-2.000 F800.000
G2 X77.993 Y41.029 Z-2.000 I-0.007 J-8.503 K0.000 F800.000
G1 X77.993 Y41.029 Z-3.000 F200.000
G2 X80.494 Y35.218 Z-3.000 I-5.999 J-6.026 K0.000 F800.000
G2 X80.500 Y5.002 Z-3.000 I-20364.625 J-19.410 K0.000 F800.000
G2 X72.000 Y-3.500 Z-3.000 I-8.509 J0.007 K0.000 F800.000
G1 X0.000 Y-3.500 Z-3.000 F800.000
G2 X-3.500 Y0.000 Z-3.000 I-0.000 J3.500 K0.000 F800.000
G1 X-3.500 Y40.050 Z-3.000 F800.000
G2 X0.000 Y43.550 Z-3.000 I3.500 J0.000 K0.000 F800.000
G1 X2.500 Y43.550 Z-3.000 F800.000
G3 X3.528 Y43.506 Z-3.000 I0.716 J4.739 K0.000 F800.000
G1 X72.000 Y43.506 Z-3.000 F800.000
G2 X77.993 Y41.029 Z-3.000 I-0.007 J-8.503 K0.000 F800.000
G1 X77.993 Y41.029 Z-4.000 F200.000
G2 X80.494 Y35.218 Z-4.000 I-5.999 J-6.026 K0.000 F800.000
G2 X80.500 Y5.002 Z-4.000 I-20364.625 J-19.410 K0.000 F800.000
G2 X72.000 Y-3.500 Z-4.000 I-8.509 J0.007 K0.000 F800.000
G1 X0.000 Y-3.500 Z-4.000 F800.000
G2 X-3.500 Y0.000 Z-4.000 I-0.000 J3.500 K0.000 F800.000
G1 X-3.500 Y40.050 Z-4.000 F800.000
G2 X0.000 Y43.550 Z-4.000 I3.500 J0.000 K0.000 F800.000
G1 X2.500 Y43.550 Z-4.000 F800.000
G3 X3.528 Y43.506 Z-4.000 I0.716 J4.739 K0.000 F800.000
G1 X72.000 Y43.506 Z-4.000 F800.000
G2 X77.993 Y41.029 Z-4.000 I-0.007 J-8.503 K0.000 F800.000
G1 X77.993 Y41.029 Z-5.000 F200.000
G2 X80.494 Y35.218 Z-5.000 I-5.999 J-6.026 K0.000 F800.000
G2 X80.500 Y5.002 Z-5.000 I-20364.625 J-19.410 K0.000 F800.000
G2 X72.000 Y-3.500 Z-5.000 I-8.509 J0.007 K0.000 F800.000
G1 X0.000 Y-3.500 Z-5.000 F800.000
G2 X-3.500 Y0.000 Z-5.000 I-0.000 J3.500 K0.000 F800.000
G1 X-3.500 Y40.050 Z-5.000 F800.000
G2 X0.000 Y43.550 Z-5.000 I3.500 J0.000 K0.000 F800.000
G1 X2.500 Y43.550 Z-5.000 F800.000
G3 X3.528 Y43.506 Z-5.000 I0.716 J4.739 K0.000 F800.000
G1 X72.000 Y43.506 Z-5.000 F800.000
G2 X77.993 Y41.029 Z-5.000 I-0.007 J-8.503 K0.000 F800.000
G1 X77.993 Y41.029 Z-6.000 F200.000
G2 X80.494 Y35.218 Z-6.000 I-5.999 J-6.026 K0.000 F800.000
G2 X80.500 Y5.002 Z-6.000 I-20364.625 J-19.410 K0.000 F800.000
G2 X72.000 Y-3.500 Z-6.000 I-8.509 J0.007 K0.000 F800.000
G1 X0.000 Y-3.500 Z-6.000 F800.000
G2 X-3.500 Y0.000 Z-6.000 I-0.000 J3.500 K0.000 F800.000
G1 X-3.500 Y40.050 Z-6.000 F800.000
G2 X0.000 Y43.550 Z-6.000 I3.500 J0.000 K0.000 F800.000
G1 X2.500 Y43.550 Z-6.000 F800.000
G3 X3.528 Y43.506 Z-6.000 I0.716 J4.739 K0.000 F800.000
G1 X72.000 Y43.506 Z-6.000 F800.000
G2 X77.993 Y41.029 Z-6.000 I-0.007 J-8.503 K0.000 F800.000
G1 X77.993 Y41.029 Z-7.000 F200.000
G2 X80.494 Y35.218 Z-7.000 I-5.999 J-6.026 K0.000 F800.000
G2 X80.500 Y5.002 Z-7.000 I-20364.625 J-19.410 K0.000 F800.000
G2 X72.000 Y-3.500 Z-7.000 I-8.509 J0.007 K0.000 F800.000
G1 X0.000 Y-3.500 Z-7.000 F800.000
G2 X-3.500 Y0.000 Z-7.000 I-0.000 J3.500 K0.000 F800.000
G1 X-3.500 Y40.050 Z-7.000 F800.000
G2 X0.000 Y43.550 Z-7.000 I3.500 J0.000 K0.000 F800.000
G1 X2.500 Y43.550 Z-7.000 F800.000
G3 X3.528 Y43.506 Z-7.000 I0.716 J4.739 K0.000 F800.000
G1 X72.000 Y43.506 Z-7.000 F800.000
G2 X77.993 Y41.029 Z-7.000 I-0.007 J-8.503 K0.000 F800.000
G1 X77.993 Y41.029 Z-8.000 F200.000
G2 X80.494 Y35.218 Z-8.000 I-5.999 J-6.026 K0.000 F800.000
G2 X80.500 Y5.002 Z-8.000 I-20364.625 J-19.410 K0.000 F800.000
G2 X72.000 Y-3.500 Z-8.000 I-8.509 J0.007 K0.000 F800.000
G1 X0.000 Y-3.500 Z-8.000 F800.000
G2 X-3.500 Y0.000 Z-8.000 I-0.000 J3.500 K0.000 F800.000
G1 X-3.500 Y40.050 Z-8.000 F800.000
G2 X0.000 Y43.550 Z-8.000 I3.500 J0.000 K0.000 F800.000
G1 X2.500 Y43.550 Z-8.000 F800.000
G3 X3.528 Y43.506 Z-8.000 I0.716 J4.739 K0.000 F800.000
G1 X72.000 Y43.506 Z-8.000 F800.000
G2 X77.993 Y41.029 Z-8.000 I-0.007 J-8.503 K0.000 F800.000
G1 X77.993 Y41.029 Z-9.000 F200.000
G2 X80.494 Y35.218 Z-9.000 I-5.999 J-6.026 K0.000 F800.000
G2 X80.500 Y5.002 Z-9.000 I-20364.625 J-19.410 K0.000 F800.000
G2 X72.000 Y-3.500 Z-9.000 I-8.509 J0.007 K0.000 F800.000
G1 X0.000 Y-3.500 Z-9.000 F800.000
G2 X-3.500 Y0.000 Z-9.000 I-0.000 J3.500 K0.000 F800.000
G1 X-3.500 Y40.050 Z-9.000 F800.000
G2 X0.000 Y43.550 Z-9.000 I3.500 J0.000 K0.000 F800.000
G1 X2.500 Y43.550 Z-9.000 F800.000
G3 X3.528 Y43.506 Z-9.000 I0.716 J4.739 K0.000 F800.000
G1 X72.000 Y43.506 Z-9.000 F800.000
G2 X77.993 Y41.029 Z-9.000 I-0.007 J-8.503 K0.000 F800.000
G1 X77.993 Y41.029 Z-10.000 F200.000
G2 X80.494 Y35.218 Z-10.000 I-5.999 J-6.026 K0.000 F800.000
G2 X80.500 Y5.002 Z-10.000 I-20364.625 J-19.410 K0.000 F800.000
G2 X72.000 Y-3.500 Z-10.000 I-8.509 J0.007 K0.000 F800.000
G1 X0.000 Y-3.500 Z-10.000 F800.000
G2 X-3.500 Y0.000 Z-10.000 I-0.000 J3.500 K0.000 F800.000
G1 X-3.500 Y40.050 Z-10.000 F800.000
G2 X0.000 Y43.550 Z-10.000 I3.500 J0.000 K0.000 F800.000
G1 X2.500 Y43.550 Z-10.000 F800.000
G3 X3.528 Y43.506 Z-10.000 I0.716 J4.739 K0.000 F800.000
G1 X72.000 Y43.506 Z-10.000 F800.000
G2 X77.993 Y41.029 Z-10.000 I-0.007 J-8.503 K0.000 F800.000
G1 X77.993 Y41.029 Z-11.000 F200.000
G2 X80.494 Y35.218 Z-11.000 I-5.999 J-6.026 K0.000 F800.000
G2 X80.500 Y5.002 Z-11.000 I-20364.625 J-19.410 K0.000 F800.000
G2 X72.000 Y-3.500 Z-11.000 I-8.509 J0.007 K0.000 F800.000
G1 X0.000 Y-3.500 Z-11.000 F800.000
G2 X-3.500 Y0.000 Z-11.000 I-0.000 J3.500 K0.000 F800.000
G1 X-3.500 Y40.050 Z-11.000 F800.000
G2 X0.000 Y43.550 Z-11.000 I3.500 J0.000 K0.000 F800.000
G1 X2.500 Y43.550 Z-11.000 F800.000
G3 X3.528 Y43.506 Z-11.000 I0.716 J4.739 K0.000 F800.000
G1 X72.000 Y43.506 Z-11.000 F800.000
G2 X77.993 Y41.029 Z-11.000 I-0.007 J-8.503 K0.000 F800.000
G1 X77.993 Y41.029 Z-12.000 F200.000
G2 X80.494 Y35.218 Z-12.000 I-5.999 J-6.026 K0.000 F800.000
G2 X80.500 Y5.002 Z-12.000 I-20364.625 J-19.410 K0.000 F800.000
G2 X72.000 Y-3.500 Z-12.000 I-8.509 J0.007 K0.000 F800.000
G1 X0.000 Y-3.500 Z-12.000 F800.000
G2 X-3.500 Y0.000 Z-12.000 I-0.000 J3.500 K0.000 F800.000
G1 X-3.500 Y40.050 Z-12.000 F800.000
G2 X0.000 Y43.550 Z-12.000 I3.500 J0.000 K0.000 F800.000
G1 X2.500 Y43.550 Z-12.000 F800.000
G3 X3.528 Y43.506 Z-12.000 I0.716 J4.739 K0.000 F800.000
G1 X72.000 Y43.506 Z-12.000 F800.000
G2 X77.993 Y41.029 Z-12.000 I-0.007 J-8.503 K0.000 F800.000
G1 X77.993 Y41.029 Z-13.000 F200.000
G2 X80.494 Y35.218 Z-13.000 I-5.999 J-6.026 K0.000 F800.000
G2 X80.500 Y5.002 Z-13.000 I-20364.625 J-19.410 K0.000 F800.000
G2 X72.000 Y-3.500 Z-13.000 I-8.509 J0.007 K0.000 F800.000
G1 X0.000 Y-3.500 Z-13.000 F800.000
G2 X-3.500 Y0.000 Z-13.000 I-0.000 J3.500 K0.000 F800.000
G1 X-3.500 Y40.050 Z-13.000 F800.000
G2 X0.000 Y43.550 Z-13.000 I3.500 J0.000 K0.000 F800.000
G1 X2.500 Y43.550 Z-13.000 F800.000
G3 X3.528 Y43.506 Z-13.000 I0.716 J4.739 K0.000 F800.000
G1 X72.000 Y43.506 Z-13.000 F800.000
G2 X77.993 Y41.029 Z-13.000 I-0.007 J-8.503 K0.000 F800.000
G1 X77.993 Y41.029 Z-14.000 F200.000
G2 X80.494 Y35.218 Z-14.000 I-5.999 J-6.026 K0.000 F800.000
G2 X80.500 Y5.002 Z-14.000 I-20364.625 J-19.410 K0.000 F800.000
G2 X72.000 Y-3.500 Z-14.000 I-8.509 J0.007 K0.000 F800.000
G1 X0.000 Y-3.500 Z-14.000 F800.000
G2 X-3.500 Y0.000 Z-14.000 I-0.000 J3.500 K0.000 F800.000
G1 X-3.500 Y40.050 Z-14.000 F800.000
G2 X0.000 Y43.550 Z-14.000 I3.500 J0.000 K0.000 F800.000
G1 X2.500 Y43.550 Z-14.000 F800.000
G3 X3.528 Y43.506 Z-14.000 I0.716 J4.739 K0.000 F800.000
G1 X72.000 Y43.506 Z-14.000 F800.000
G2 X77.993 Y41.029 Z-14.000 I-0.007 J-8.503 K0.000 F800.000
G1 X77.993 Y41.029 Z-15.000 F200.000
G2 X80.494 Y35.218 Z-15.000 I-5.999 J-6.026 K0.000 F800.000
G2 X80.500 Y5.002 Z-15.000 I-20364.625 J-19.410 K0.000 F800.000
G2 X72.000 Y-3.500 Z-15.000 I-8.509 J0.007 K0.000 F800.000
G1 X0.000 Y-3.500 Z-15.000 F800.000
G2 X-3.500 Y0.000 Z-15.000 I-0.000 J3.500 K0.000 F800.000
G1 X-3.500 Y40.050 Z-15.000 F800.000
G2 X0.000 Y43.550 Z-15.000 I3.500 J0.000 K0.000 F800.000
G1 X2.500 Y43.550 Z-15.000 F800.000
G3 X3.528 Y43.506 Z-15.000 I0.716 J4.739 K0.000 F800.000
G1 X72.000 Y43.506 Z-15.000 F800.000
G2 X77.993 Y41.029 Z-15.000 I-0.007 J-8.503 K0.000 F800.000
G1 X77.993 Y41.029 Z-16.000 F200.000
G2 X80.494 Y35.218 Z-16.000 I-5.999 J-6.026 K0.000 F800.000
G2 X80.500 Y5.002 Z-16.000 I-20364.625 J-19.410 K0.000 F800.000
G2 X72.000 Y-3.500 Z-16.000 I-8.509 J0.007 K0.000 F800.000
G1 X0.000 Y-3.500 Z-16.000 F800.000
G2 X-3.500 Y0.000 Z-16.000 I-0.000 J3.500 K0.000 F800.000
G1 X-3.500 Y40.050 Z-16.000 F800.000
G2 X0.000 Y43.550 Z-16.000 I3.500 J0.000 K0.000 F800.000
G1 X2.500 Y43.550 Z-16.000 F800.000
G3 X3.528 Y43.506 Z-16.000 I0.716 J4.739 K0.000 F800.000
G1 X72.000 Y43.506 Z-16.000 F800.000
G2 X77.993 Y41.029 Z-16.000 I-0.007 J-8.503 K0.000 F800.000
G1 X77.993 Y41.029 Z-17.000 F200.000
G2 X80.494 Y35.218 Z-17.000 I-5.999 J-6.026 K0.000 F800.000
G2 X80.500 Y5.002 Z-17.000 I-20364.625 J-19.410 K0.000 F800.000
G2 X72.000 Y-3.500 Z-17.000 I-8.509 J0.007 K0.000 F800.000
G1 X0.000 Y-3.500 Z-17.000 F800.000
G2 X-3.500 Y0.000 Z-17.000 I-0.000 J3.500 K0.000 F800.000
G1 X-3.500 Y40.050 Z-17.000 F800.000
G2 X0.000 Y43.550 Z-17.000 I3.500 J0.000 K0.000 F800.000
G1 X2.500 Y43.550 Z-17.000 F800.000
G3 X3.528 Y43.506 Z-17.000 I0.716 J4.739 K0.000 F800.000
G1 X72.000 Y43.506 Z-17.000 F800.000
G2 X77.993 Y41.029 Z-17.000 I-0.007 J-8.503 K0.000 F800.000
G1 X77.993 Y41.029 Z-18.000 F200.000
G2 X80.494 Y35.218 Z-18.000 I-5.999 J-6.026 K0.000 F800.000
G2 X80.500 Y5.002 Z-18.000 I-20364.625 J-19.410 K0.000 F800.000
G2 X72.000 Y-3.500 Z-18.000 I-8.509 J0.007 K0.000 F800.000
G1 X0.000 Y-3.500 Z-18.000 F800.000
G2 X-3.500 Y0.000 Z-18.000 I-0.000 J3.500 K0.000 F800.000
G1 X-3.500 Y40.050 Z-18.000 F800.000
G2 X0.000 Y43.550 Z-18.000 I3.500 J0.000 K0.000 F800.000
G1 X2.500 Y43.550 Z-18.000 F800.000
G3 X3.528 Y43.506 Z-18.000 I0.716 J4.739 K0.000 F800.000
G1 X72.000 Y43.506 Z-18.000 F800.000
G2 X77.993 Y41.029 Z-18.000 I-0.007 J-8.503 K0.000 F800.000
G1 X77.993 Y41.029 Z-19.000 F200.000
G2 X80.494 Y35.218 Z-19.000 I-5.999 J-6.026 K0.000 F800.000
G2 X80.500 Y5.002 Z-19.000 I-20364.625 J-19.410 K0.000 F800.000
G2 X72.000 Y-3.500 Z-19.000 I-8.509 J0.007 K0.000 F800.000
G1 X0.000 Y-3.500 Z-19.000 F800.000
G2 X-3.500 Y0.000 Z-19.000 I-0.000 J3.500 K0.000 F800.000
G1 X-3.500 Y40.050 Z-19.000 F800.000
G2 X0.000 Y43.550 Z-19.000 I3.500 J0.000 K0.000 F800.000
G1 X2.500 Y43.550 Z-19.000 F800.000
G3 X3.528 Y43.506 Z-19.000 I0.716 J4.739 K0.000 F800.000
G1 X72.000 Y43.506 Z-19.000 F800.000
G2 X77.993 Y41.029 Z-19.000 I-0.007 J-8.503 K0.000 F800.000
G1 X77.993 Y41.029 Z-20.000 F200.000
G2 X80.494 Y35.218 Z-20.000 I-5.999 J-6.026 K0.000 F800.000
G2 X80.500 Y5.002 Z-20.000 I-20364.625 J-19.410 K0.000 F800.000
G2 X72.000 Y-3.500 Z-20.000 I-8.509 J0.007 K0.000 F800.000
G1 X0.000 Y-3.500 Z-20.000 F800.000
G2 X-3.500 Y0.000 Z-20.000 I-0.000 J3.500 K0.000 F800.000
G1 X-3.500 Y40.050 Z-20.000 F800.000
G2 X0.000 Y43.550 Z-20.000 I3.500 J0.000 K0.000 F800.000
G1 X2.500 Y43.550 Z-20.000 F800.000
G3 X3.528 Y43.506 Z-20.000 I0.716 J4.739 K0.000 F800.000
G1 X72.000 Y43.506 Z-20.000 F800.000
G2 X77.993 Y41.029 Z-20.000 I-0.007 J-8.503 K0.000 F800.000
G1 X77.993 Y41.029 Z-20.516 F200.000
G2 X80.494 Y35.218 Z-20.516 I-5.999 J-6.026 K0.000 F800.000
G2 X80.500 Y5.002 Z-20.516 I-20364.625 J-19.410 K0.000 F800.000
G2 X72.000 Y-3.500 Z-20.516 I-8.509 J0.007 K0.000 F800.000
G1 X0.000 Y-3.500 Z-20.516 F800.000
G2 X-3.500 Y0.000 Z-20.516 I-0.000 J3.500 K0.000 F800.000
G1 X-3.500 Y40.050 Z-20.516 F800.000
G2 X0.000 Y43.550 Z-20.516 I3.500 J0.000 K0.000 F800.000
G1 X2.500 Y43.550 Z-20.516 F800.000
G3 X3.528 Y43.506 Z-20.516 I0.716 J4.739 K0.000 F800.000
G1 X72.000 Y43.506 Z-20.516 F800.000
G2 X77.993 Y41.029 Z-20.516 I-0.007 J-8.503 K0.000 F800.000
G0 Z5.000
G0 Z5.000
(Finish operation: RoughContour)
(Begin operation: RoughHole1)
(Path: RoughHole1)
(RoughHole1)
(Helix to depth: -1.000000)
G0 Z5.000
G0 X35.590 Y19.195 Z5.000
G0 X35.590 Y19.195 Z3.000
G1 X35.590 Y19.195 Z0.000 F200.000
G1 X35.590 Y19.195 Z0.000 F200.000
G1 X35.707 Y19.618 Z-0.039 F200.000
G1 X35.739 Y20.056 Z-0.077 F200.000
G1 X35.685 Y20.492 Z-0.116 F200.000
G1 X35.547 Y20.909 Z-0.155 F200.000
G1 X35.331 Y21.291 Z-0.193 F200.000
G1 X35.044 Y21.623 Z-0.232 F200.000
G1 X34.697 Y21.893 Z-0.271 F200.000
G1 X34.305 Y22.090 Z-0.309 F200.000
G1 X33.882 Y22.207 Z-0.348 F200.000
G1 X33.444 Y22.239 Z-0.387 F200.000
G1 X33.008 Y22.185 Z-0.425 F200.000
G1 X32.591 Y22.047 Z-0.464 F200.000
G1 X32.209 Y21.831 Z-0.502 F200.000
G1 X31.877 Y21.544 Z-0.541 F200.000
G1 X31.607 Y21.197 Z-0.580 F200.000
G1 X31.410 Y20.805 Z-0.618 F200.000
G1 X31.293 Y20.382 Z-0.657 F200.000
G1 X31.261 Y19.944 Z-0.696 F200.000
G1 X31.315 Y19.508 Z-0.734 F200.000
G1 X31.453 Y19.091 Z-0.773 F200.000
G1 X31.669 Y18.709 Z-0.812 F200.000
G1 X31.956 Y18.377 Z-0.850 F200.000
G1 X32.303 Y18.107 Z-0.889 F200.000
G1 X32.695 Y17.910 Z-0.928 F200.000
G1 X33.118 Y17.793 Z-0.966 F200.000
G1 X33.500 Y17.760 Z-1.000 F800.000
G1 X33.937 Y17.803 Z-1.000 F800.000
G1 X34.357 Y17.931 Z-1.000 F800.000
G1 X34.744 Y18.138 Z-1.000 F800.000
G1 X35.084 Y18.416 Z-1.000 F800.000
G1 X35.362 Y18.756 Z-1.000 F800.000
G1 X35.569 Y19.143 Z-1.000 F800.000
G1 X35.697 Y19.563 Z-1.000 F800.000
G1 X35.740 Y20.000 Z-1.000 F800.000
G1 X35.697 Y20.437 Z-1.000 F800.000
G1 X35.569 Y20.857 Z-1.000 F800.000
G1 X35.362 Y21.244 Z-1.000 F800.000
G1 X35.084 Y21.584 Z-1.000 F800.000
G1 X34.744 Y21.862 Z-1.000 F800.000
G1 X34.357 Y22.069 Z-1.000 F800.000
G1 X33.937 Y22.197 Z-1.000 F800.000
G1 X33.500 Y22.240 Z-1.000 F800.000
G1 X33.063 Y22.197 Z-1.000 F800.000
G1 X32.643 Y22.069 Z-1.000 F800.000
G1 X32.256 Y21.862 Z-1.000 F800.000
G1 X31.916 Y21.584 Z-1.000 F800.000
G1 X31.638 Y21.244 Z-1.000 F800.000
G1 X31.431 Y20.857 Z-1.000 F800.000
G1 X31.303 Y20.437 Z-1.000 F800.000
G1 X31.260 Y20.000 Z-1.000 F800.000
G1 X31.303 Y19.563 Z-1.000 F800.000
G1 X31.431 Y19.143 Z-1.000 F800.000
G1 X31.638 Y18.756 Z-1.000 F800.000
G1 X31.916 Y18.416 Z-1.000 F800.000
G1 X32.256 Y18.138 Z-1.000 F800.000
G1 X32.643 Y17.931 Z-1.000 F800.000
G1 X33.063 Y17.803 Z-1.000 F800.000
G1 X33.500 Y17.760 Z-1.000 F800.000
(Adaptive - depth: -1.000000)
G1 X33.500 Y17.750 F800.000
G1 X33.569 Y17.675 F800.000
G1 X33.619 Y17.587 F800.000
G1 X33.688 Y17.512 F800.000
G1 X33.944 Y17.356 F800.000
G1 X34.219 Y17.262 F800.000
G1 X34.806 Y17.244 F800.000
G1 X35.194 Y17.325 F800.000
G1 X35.431 Y17.413 F800.000
G1 X35.663 Y17.525 F800.000
G1 X35.962 Y17.719 F800.000
G1 X36.269 Y18.012 F800.000
G1 X36.487 Y18.269 F800.000
G1 X36.688 Y18.581 F800.000
G1 X36.844 Y18.925 F800.000
G1 X36.950 Y19.269 F800.000
G1 X37.038 Y19.631 F800.000
G1 X37.075 Y20.144 F800.000
G1 X37.062 Y20.544 F800.000
G1 X36.987 Y20.962 F800.000
G1 X36.881 Y21.312 F800.000
G1 X36.719 Y21.675 F800.000
G1 X36.525 Y22.019 F800.000
G1 X36.237 Y22.406 F800.000
G1 X35.950 Y22.712 F800.000
G1 X35.625 Y22.994 F800.000
G1 X35.256 Y23.238 F800.000
G1 X34.862 Y23.413 F800.000
G1 X34.531 Y23.525 F800.000
G1 X34.138 Y23.619 F800.000
G1 X33.663 Y23.656 F800.000
G1 X33.263 Y23.650 F800.000
G1 X32.837 Y23.594 F800.000
G1 X32.413 Y23.506 F800.000
G1 X31.881 Y23.325 F800.000
G1 X31.475 Y23.094 F800.000
G1 X31.200 Y22.900 F800.000
G1 X30.931 Y22.669 F800.000
G1 X30.613 Y22.325 F800.000
G1 X30.331 Y21.938 F800.000
G1 X30.131 Y21.556 F800.000
G1 X29.988 Y21.206 F800.000
G1 X29.881 Y20.800 F800.000
G1 X29.825 Y20.394 F800.000
G1 X29.788 Y19.994 F800.000
G1 X29.825 Y19.425 F800.000
G1 X29.900 Y18.988 F800.000
G1 X30.056 Y18.550 F800.000
G1 X30.194 Y18.250 F800.000
G1 X30.413 Y17.906 F800.000
G1 X30.644 Y17.587 F800.000
G1 X30.994 Y17.194 F800.000
G1 X31.394 Y16.800 F800.000
G1 X31.906 Y16.387 F800.000
G1 X32.406 Y16.100 F800.000
G1 X32.769 Y15.919 F800.000
G1 X33.256 Y15.738 F800.000
G1 X33.731 Y15.625 F800.000
G1 X34.194 Y15.588 F800.000
G1 X34.550 Y15.588 F800.000
G1 X34.975 Y15.644 F800.000
G1 X35.375 Y15.719 F800.000
G1 X35.944 Y15.912 F800.000
G1 X36.369 Y16.106 F800.000
G1 X36.775 Y16.369 F800.000
G1 X37.069 Y16.600 F800.000
G1 X37.381 Y16.913 F800.000
G1 X37.663 Y17.231 F800.000
G1 X37.987 Y17.712 F800.000
G1 X38.212 Y18.131 F800.000
G1 X38.406 Y18.581 F800.000
G1 X38.556 Y19.075 F800.000
G1 X38.656 Y19.556 F800.000
G1 X38.706 Y20.050 F800.000
G1 X38.706 Y20.550 F800.000
G1 X38.656 Y21.044 F800.000
G1 X38.538 Y21.525 F800.000
G1 X38.406 Y21.900 F800.000
G1 X38.231 Y22.325 F800.000
G1 X37.956 Y22.844 F800.000
G1 X37.625 Y23.350 F800.000
G1 X37.256 Y23.750 F800.000
G1 X36.975 Y24.019 F800.000
G1 X36.581 Y24.319 F800.000
G1 X36.194 Y24.581 F800.000
G1 X35.619 Y24.881 F800.000
G1 X35.131 Y25.081 F800.000
G1 X34.606 Y25.212 F800.000
G1 X34.194 Y25.281 F800.000
G1 X33.706 Y25.312 F800.000
G1 X33.231 Y25.325 F800.000
G1 X32.500 Y25.250 F800.000
G1 X31.969 Y25.125 F800.000
G1 X31.550 Y25.000 F800.000
G1 X31.044 Y24.781 F800.000
G1 X30.606 Y24.531 F800.000
G1 X30.200 Y24.256 F800.000
G1 X29.812 Y23.925 F800.000
G1 X29.462 Y23.562 F800.000
G1 X29.150 Y23.169 F800.000
G1 X28.875 Y22.744 F800.000
G1 X28.644 Y22.294 F800.000
G1 X28.456 Y21.825 F800.000
G1 X28.294 Y21.350 F800.000
G1 X28.163 Y20.719 F800.000
G1 X28.094 Y20.181 F800.000
G1 X28.094 Y19.625 F800.000
G1 X28.131 Y19.169 F800.000
G1 X28.225 Y18.663 F800.000
G1 X28.369 Y18.175 F800.000
G1 X28.550 Y17.719 F800.000
G1 X28.762 Y17.262 F800.000
G1 X29.100 Y16.712 F800.000
G1 X29.419 Y16.281 F800.000
G1 X29.781 Y15.863 F800.000
G1 X30.181 Y15.450 F800.000
G1 X30.744 Y14.981 F800.000
G1 X31.238 Y14.625 F800.000
G1 X31.800 Y14.338 F800.000
G1 X32.181 Y14.169 F800.000
G1 X32.694 Y14.006 F800.000
G1 X33.188 Y13.887 F800.000
G1 X33.812 Y13.800 F800.000
G1 X34.362 Y13.769 F800.000
G1 X34.919 Y13.787 F800.000
G1 X35.487 Y13.887 F800.000
G1 X35.913 Y13.994 F800.000
G1 X36.400 Y14.169 F800.000
G1 X36.862 Y14.363 F800.000
G1 X37.462 Y14.694 F800.000
G1 X37.925 Y15.006 F800.000
G1 X38.375 Y15.356 F800.000
G1 X38.812 Y15.769 F800.000
G1 X39.169 Y16.219 F800.000
G1 X39.419 Y16.575 F800.000
G1 X39.694 Y17.025 F800.000
G1 X39.969 Y17.644 F800.000
G1 X40.150 Y18.137 F800.000
G1 X40.306 Y18.688 F800.000
G1 X40.406 Y19.262 F800.000
G1 X40.456 Y19.819 F800.000
G1 X40.456 Y20.387 F800.000
G1 X40.406 Y20.956 F800.000
G1 X40.312 Y21.512 F800.000
G1 X40.169 Y22.069 F800.000
G1 X40.006 Y22.619 F800.000
G1 X39.725 Y23.312 F800.000
G1 X39.406 Y23.875 F800.000
G1 X39.131 Y24.269 F800.000
G1 X38.819 Y24.650 F800.000
G1 X38.462 Y25.044 F800.000
G1 X37.913 Y25.525 F800.000
G1 X37.456 Y25.869 F800.000
G1 X36.950 Y26.194 F800.000
G1 X36.394 Y26.481 F800.000
G1 X35.837 Y26.719 F800.000
G1 X35.263 Y26.913 F800.000
G1 X34.663 Y27.056 F800.000
G1 X34.062 Y27.150 F800.000
G1 X33.456 Y27.169 F800.000
G1 X32.981 Y27.150 F800.000
G1 X31.887 Y26.988 F800.000
G1 X31.163 Y26.788 F800.000
G1 X30.562 Y26.581 F800.000
G1 X29.969 Y26.275 F800.000
G1 X29.581 Y26.044 F800.000
G1 X29.131 Y25.712 F800.000
G1 X28.712 Y25.369 F800.000
G1 X28.188 Y24.850 F800.000
G1 X27.794 Y24.394 F800.000
G1 X27.425 Y23.900 F800.000
G1 X27.081 Y23.350 F800.000
G1 X26.825 Y22.781 F800.000
G1 X26.650 Y22.337 F800.000
G1 X26.369 Y21.250 F800.000
G1 X26.269 Y20.506 F800.000
G1 X26.231 Y19.875 F800.000
G1 X26.262 Y19.219 F800.000
G1 X26.319 Y18.700 F800.000
G1 X26.438 Y18.119 F800.000
G1 X26.606 Y17.556 F800.000
G1 X26.812 Y17.031 F800.000
G1 X27.044 Y16.494 F800.000
G1 X27.413 Y15.838 F800.000
G1 X27.769 Y15.294 F800.000
G1 X28.175 Y14.744 F800.000
G1 X28.650 Y14.200 F800.000
G1 X29.156 Y13.744 F800.000
G1 X29.556 Y13.419 F800.000
G1 X30.075 Y13.075 F800.000
G1 X30.594 Y12.794 F800.000
G1 X32.319 Y12.100 F800.000
G1 X33.631 Y11.844 F800.000
G1 X35.506 Y11.838 F800.000
G1 X36.538 Y12.069 F800.000
G1 X37.531 Y12.431 F800.000
G1 X38.181 Y12.794 F800.000
G1 X38.806 Y13.200 F800.000
G1 X39.362 Y13.637 F800.000
G1 X39.819 Y14.037 F800.000
G1 X40.331 Y14.562 F800.000
G1 X40.769 Y15.088 F800.000
G1 X41.138 Y15.650 F800.000
G1 X41.388 Y16.094 F800.000
G1 X41.644 Y16.644 F800.000
G1 X41.862 Y17.188 F800.000
G1 X42.075 Y17.900 F800.000
G1 X42.219 Y18.538 F800.000
G1 X42.325 Y19.200 F800.000
G1 X42.381 Y19.900 F800.000
G1 X42.388 Y20.575 F800.000
G1 X42.344 Y21.256 F800.000
G1 X42.250 Y21.931 F800.000
G1 X42.075 Y22.594 F800.000
G1 X41.913 Y23.094 F800.000
G1 X41.669 Y23.669 F800.000
G1 X41.413 Y24.212 F800.000
G1 X41.031 Y24.856 F800.000
G1 X40.650 Y25.413 F800.000
G1 X40.225 Y25.956 F800.000
G1 X39.731 Y26.494 F800.000
G1 X39.225 Y26.975 F800.000
G1 X38.650 Y27.400 F800.000
G1 X38.231 Y27.675 F800.000
G1 X37.219 Y28.169 F800.000
G1 X36.419 Y28.369 F800.000
G1 X30.919 Y28.344 F800.000
G1 X30.419 Y28.275 F800.000
G1 X29.819 Y28.119 F800.000
G1 X28.613 Y27.538 F800.000
G1 X27.962 Y27.150 F800.000
G1 X27.375 Y26.675 F800.000
G1 X26.900 Y26.231 F800.000
G1 X26.512 Y25.812 F800.000
G1 X26.131 Y25.356 F800.000
G1 X25.706 Y24.731 F800.000
G1 X25.381 Y24.181 F800.000
G1 X25.075 Y23.581 F800.000
G1 X24.812 Y22.938 F800.000
G1 X24.606 Y22.306 F800.000
G1 X24.444 Y21.650 F800.000
G1 X24.331 Y20.975 F800.000
G1 X24.269 Y20.300 F800.000
G1 X24.256 Y19.625 F800.000
G1 X24.294 Y18.950 F800.000
G1 X24.375 Y18.275 F800.000
G1 X24.506 Y17.613 F800.000
G1 X24.688 Y16.962 F800.000
G1 X24.919 Y16.325 F800.000
G1 X25.194 Y15.706 F800.000
G1 X25.512 Y15.113 F800.000
G1 X25.850 Y14.525 F800.000
G1 X26.281 Y13.906 F800.000
G1 X26.744 Y13.319 F800.000
G1 X27.238 Y12.756 F800.000
G1 X28.250 Y11.863 F800.000
G1 X28.506 Y11.713 F800.000
G1 X28.681 Y11.637 F800.000
G1 X28.775 Y11.619 F800.000
G1 X31.494 Y11.619 F800.000
G1 X31.494 Y11.619 F800.000
G1 X31.525 Y11.631 F800.000
G1 X31.519 Y11.637 F800.000
G1 X31.581 Y11.619 F800.000
G1 X31.581 Y11.619 F800.000
G1 X32.987 Y11.619 F800.000
G1 X32.987 Y11.619 F800.000
G1 X33.206 Y11.650 F800.000
G1 X33.275 Y11.669 F800.000
G1 X33.312 Y11.688 F800.000
G1 X33.744 Y11.619 F800.000
G1 X33.744 Y11.619 F800.000
G1 X38.712 Y11.637 F800.000
G1 X39.462 Y11.756 F800.000
G1 X39.744 Y11.838 F800.000
G1 X40.006 Y11.956 F800.000
G1 X40.737 Y12.419 F800.000
G1 X41.306 Y12.900 F800.000
G1 X41.825 Y13.431 F800.000
G1 X42.244 Y13.925 F800.000
G1 X42.606 Y14.412 F800.000
G1 X42.975 Y15.019 F800.000
G1 X43.275 Y15.600 F800.000
G1 X43.781 Y16.825 F800.000
G1 X43.994 Y17.538 F800.000
G1 X44.169 Y18.262 F800.000
G1 X44.306 Y18.994 F800.000
G1 X44.388 Y19.738 F800.000
G1 X44.394 Y20.481 F800.000
G1 X44.369 Y21.062 F800.000
G1 X44.281 Y21.781 F800.000
G1 X44.144 Y22.456 F800.000
G1 X43.969 Y23.094 F800.000
G1 X43.737 Y23.744 F800.000
G1 X43.494 Y24.375 F800.000
G1 X43.169 Y25.050 F800.000
G1 X42.800 Y25.700 F800.000
G1 X42.400 Y26.331 F800.000
G1 X41.956 Y26.938 F800.000
G1 X41.481 Y27.512 F800.000
G1 X40.969 Y28.062 F800.000
G1 X40.800 Y28.175 F800.000
G1 X40.431 Y28.350 F800.000
G1 X40.337 Y28.381 F800.000
G1 X37.038 Y28.381 F800.000
G1 X37.038 Y28.381 F800.000
G1 X36.788 Y28.350 F800.000
G1 X36.550 Y28.288 F800.000
G1 X36.337 Y28.175 F800.000
G1 X36.263 Y28.100 F800.000
G0 X36.206 Y28.012
G0 X36.181 Y27.913
G0 X36.194 Y27.575
G0 X38.462 Y12.694
G1 X38.487 Y12.519 F800.000
G1 X38.544 Y12.225 F800.000
G1 X38.587 Y12.094 F800.000
G1 X38.644 Y11.981 F800.000
G1 X38.719 Y11.887 F800.000
G1 X38.812 Y11.812 F800.000
G1 X39.025 Y11.700 F800.000
G1 X39.256 Y11.644 F800.000
G1 X39.506 Y11.619 F800.000
G1 X39.506 Y11.619 F800.000
G1 X41.475 Y11.644 F800.000
G1 X42.131 Y11.775 F800.000
G1 X42.487 Y11.931 F800.000
G1 X43.175 Y12.438 F800.000
G1 X43.700 Y12.963 F800.000
G1 X44.175 Y13.537 F800.000
G1 X44.494 Y13.981 F800.000
G1 X45.112 Y15.031 F800.000
G1 X45.419 Y15.713 F800.000
G1 X45.675 Y16.381 F800.000
G1 X45.913 Y17.087 F800.000
G1 X46.094 Y17.812 F800.000
G1 X46.231 Y18.544 F800.000
G1 X46.325 Y19.288 F800.000
G1 X46.369 Y20.031 F800.000
G1 X46.369 Y20.775 F800.000
G1 X46.319 Y21.519 F800.000
G1 X46.219 Y22.262 F800.000
G1 X46.075 Y22.994 F800.000
G1 X45.888 Y23.719 F800.000
G1 X45.650 Y24.431 F800.000
G1 X45.369 Y25.125 F800.000
G1 X45.044 Y25.800 F800.000
G1 X44.306 Y27.106 F800.000
G1 X43.819 Y27.800 F800.000
G1 X43.475 Y28.169 F800.000
G1 X43.125 Y28.369 F800.000
G1 X41.525 Y28.381 F800.000
G1 X41.525 Y28.381 F800.000
G1 X41.275 Y28.350 F800.000
G1 X41.038 Y28.288 F800.000
G1 X40.825 Y28.175 F800.000
G1 X40.744 Y28.100 F800.000
G0 X40.688 Y28.012
G0 X40.650 Y27.913
G0 X40.619 Y27.569
G0 X40.962 Y12.700
G1 X40.969 Y12.525 F800.000
G1 X40.981 Y12.225 F800.000
G1 X41.013 Y12.094 F800.000
G1 X41.056 Y11.981 F800.000
G1 X41.125 Y11.887 F800.000
G1 X41.212 Y11.812 F800.000
G1 X41.425 Y11.700 F800.000
G1 X41.656 Y11.644 F800.000
G1 X41.906 Y11.619 F800.000
G1 X41.906 Y11.619 F800.000
G1 X43.688 Y11.644 F800.000
G1 X44.344 Y11.762 F800.000
G1 X44.694 Y11.912 F800.000
G1 X45.375 Y12.450 F800.000
G1 X45.888 Y12.994 F800.000
G1 X46.344 Y13.588 F800.000
G1 X46.688 Y14.106 F800.000
G1 X47.006 Y14.656 F800.000
G1 X47.312 Y15.306 F800.000
G1 X47.575 Y15.906 F800.000
G1 X47.812 Y16.613 F800.000
G1 X48.006 Y17.331 F800.000
G1 X48.163 Y18.062 F800.000
G1 X48.294 Y18.800 F800.000
G1 X48.369 Y19.544 F800.000
G1 X48.406 Y20.288 F800.000
G1 X48.406 Y21.031 F800.000
G1 X48.362 Y21.775 F800.000
G1 X48.281 Y22.519 F800.000
G1 X48.163 Y23.256 F800.000
G1 X48.000 Y23.988 F800.000
G1 X47.800 Y24.706 F800.000
G1 X47.562 Y25.413 F800.000
G1 X47.288 Y26.106 F800.000
G1 X46.944 Y26.769 F800.000
G1 X46.619 Y27.337 F800.000
G1 X46.206 Y27.962 F800.000
G1 X46.006 Y28.181 F800.000
G1 X45.750 Y28.350 F800.000
G1 X45.656 Y28.381 F800.000
G1 X44.056 Y28.381 F800.000
G1 X44.056 Y28.381 F800.000
G1 X43.806 Y28.350 F800.000
G1 X43.569 Y28.288 F800.000
G1 X43.356 Y28.175 F800.000
G1 X43.275 Y28.100 F800.000
G0 X43.212 Y28.012
G0 X43.181 Y27.913
G0 X43.144 Y27.569
G0 X43.369 Y12.700
G1 X43.375 Y12.525 F800.000
G1 X43.388 Y12.225 F800.000
G1 X43.413 Y12.094 F800.000
G1 X43.462 Y11.981 F800.000
G1 X43.531 Y11.887 F800.000
G1 X43.612 Y11.812 F800.000
G1 X43.825 Y11.700 F800.000
G1 X44.056 Y11.644 F800.000
G1 X44.306 Y11.619 F800.000
G1 X44.306 Y11.619 F800.000
G1 X45.806 Y11.644 F800.000
G1 X46.462 Y11.775 F800.000
G1 X46.731 Y11.887 F800.000
G1 X47.481 Y12.475 F800.000
G1 X47.994 Y13.019 F800.000
G1 X48.444 Y13.613 F800.000
G1 X48.794 Y14.162 F800.000
G1 X49.087 Y14.669 F800.000
G1 X49.394 Y15.338 F800.000
G1 X49.644 Y15.938 F800.000
G1 X49.875 Y16.644 F800.000
G1 X50.056 Y17.369 F800.000
G1 X50.331 Y18.837 F800.000
G1 X50.400 Y19.581 F800.000
G1 X50.438 Y20.325 F800.000
G1 X50.444 Y21.069 F800.000
G1 X50.400 Y21.812 F800.000
G1 X50.325 Y22.556 F800.000
G1 X50.094 Y24.031 F800.000
G1 X49.925 Y24.762 F800.000
G1 X49.731 Y25.481 F800.000
G1 X49.475 Y26.188 F800.000
G1 X49.200 Y26.881 F800.000
G1 X48.856 Y27.544 F800.000
G1 X48.519 Y28.125 F800.000
G1 X48.194 Y28.350 F800.000
G1 X48.094 Y28.381 F800.000
G1 X46.794 Y28.381 F800.000
G1 X46.794 Y28.381 F800.000
G1 X46.544 Y28.350 F800.000
G1 X46.306 Y28.288 F800.000
G1 X46.094 Y28.175 F800.000
G1 X46.013 Y28.100 F800.000
G0 X45.950 Y28.012
G0 X45.888 Y27.800
G0 X45.856 Y27.281
G0 X45.550 Y12.700
G1 X45.550 Y12.525 F800.000
G1 X45.556 Y12.225 F800.000
G1 X45.575 Y12.094 F800.000
G1 X45.619 Y11.981 F800.000
G1 X45.688 Y11.887 F800.000
G1 X45.775 Y11.812 F800.000
G1 X45.981 Y11.700 F800.000
G1 X46.212 Y11.644 F800.000
G1 X46.462 Y11.619 F800.000
G1 X46.462 Y11.619 F800.000
G1 X47.869 Y11.637 F800.000
G1 X48.525 Y11.762 F800.000
G1 X48.881 Y11.912 F800.000
G1 X49.550 Y12.450 F800.000
G1 X50.119 Y13.075 F800.000
G1 X50.556 Y13.675 F800.000
G1 X50.894 Y14.206 F800.000
G1 X51.206 Y14.762 F800.000
G1 X51.513 Y15.444 F800.000
G1 X51.744 Y16.075 F800.000
G1 X52.125 Y17.406 F800.000
G1 X52.263 Y18.137 F800.000
G1 X52.362 Y18.875 F800.000
G1 X52.494 Y20.363 F800.000
G1 X52.500 Y21.106 F800.000
G1 X52.481 Y21.850 F800.000
G1 X52.444 Y22.594 F800.000
G1 X52.369 Y23.337 F800.000
G1 X52.269 Y24.075 F800.000
G1 X52.106 Y24.806 F800.000
G1 X51.925 Y25.531 F800.000
G1 X51.700 Y26.244 F800.000
G1 X51.438 Y26.944 F800.000
G1 X51.106 Y27.556 F800.000
G1 X50.856 Y27.863 F800.000
G1 X50.706 Y28.000 F800.000
G1 X50.525 Y28.094 F800.000
G1 X49.938 Y28.269 F800.000
G1 X48.938 Y28.381 F800.000
G1 X48.737 Y28.381 F800.000
G1 X48.737 Y28.381 F800.000
G1 X48.487 Y28.350 F800.000
G1 X48.250 Y28.288 F800.000
G1 X48.038 Y28.175 F800.000
G1 X47.956 Y28.100 F800.000
G0 X47.894 Y28.012
G0 X47.831 Y27.800
G0 X47.800 Y27.281
G0 X47.475 Y12.700
G1 X47.475 Y12.525 F800.000
G1 X47.475 Y12.225 F800.000
G1 X47.494 Y12.094 F800.000
G1 X47.538 Y11.981 F800.000
G1 X47.606 Y11.887 F800.000
G1 X47.694 Y11.812 F800.000
G1 X47.900 Y11.700 F800.000
G1 X48.131 Y11.644 F800.000
G1 X48.381 Y11.619 F800.000
G1 X48.381 Y11.619 F800.000
G1 X49.413 Y11.637 F800.000
G1 X50.163 Y11.781 F800.000
G1 X50.706 Y11.981 F800.000
G1 X51.450 Y12.419 F800.000
G1 X52.156 Y13.069 F800.000
G1 X52.919 Y14.181 F800.000
G1 X53.225 Y14.881 F800.000
G1 X53.350 Y15.537 F800.000
G1 X53.362 Y24.350 F800.000
G1 X53.294 Y24.819 F800.000
G1 X53.106 Y25.475 F800.000
G1 X52.869 Y26.019 F800.000
G1 X52.506 Y26.606 F800.000
G1 X51.975 Y27.206 F800.000
G1 X51.263 Y27.738 F800.000
G1 X50.906 Y27.931 F800.000
G1 X50.906 Y27.931 F800.000
G1 X50.544 Y28.012 F800.000
G1 X50.300 Y28.019 F800.000
G1 X50.056 Y27.981 F800.000
G0 X49.938 Y27.950
G0 X47.781 Y27.200
G0 X46.581 Y27.056
G0 X44.631 Y27.131
G0 X34.869 Y27.113
G0 X33.544 Y27.181
G0 X31.881 Y27.781
G1 X31.762 Y27.825 F800.000
G1 X31.425 Y27.969 F800.000
G1 X30.894 Y28.244 F800.000
G1 X30.669 Y28.325 F800.000
G1 X30.312 Y28.381 F800.000
G1 X30.312 Y28.381 F800.000
G1 X28.012 Y28.356 F800.000
G1 X27.312 Y28.231 F800.000
G1 X27.012 Y28.131 F800.000
G1 X26.469 Y27.831 F800.000
G1 X26.031 Y27.538 F800.000
G1 X25.431 Y27.081 F800.000
G1 X24.887 Y26.562 F800.000
G1 X24.450 Y26.075 F800.000
G1 X24.094 Y25.644 F800.000
G1 X23.675 Y25.019 F800.000
G1 X23.356 Y24.456 F800.000
G1 X23.075 Y23.875 F800.000
G1 X22.831 Y23.244 F800.000
G1 X22.644 Y22.613 F800.000
G1 X22.500 Y21.969 F800.000
G1 X22.375 Y21.312 F800.000
G1 X22.300 Y20.562 F800.000
G1 X22.269 Y19.819 F800.000
G1 X22.275 Y19.069 F800.000
G1 X22.337 Y18.319 F800.000
G1 X22.444 Y17.575 F800.000
G1 X22.594 Y16.837 F800.000
G1 X22.794 Y16.113 F800.000
G1 X23.038 Y15.400 F800.000
G1 X23.325 Y14.706 F800.000
G1 X23.656 Y14.031 F800.000
G1 X24.056 Y13.394 F800.000
G1 X25.169 Y11.869 F800.000
G1 X25.494 Y11.644 F800.000
G1 X25.587 Y11.619 F800.000
G1 X25.869 Y11.619 F800.000
G1 X25.869 Y11.619 F800.000
G1 X26.225 Y11.662 F800.000
G1 X26.450 Y11.744 F800.000
G1 X26.544 Y11.806 F800.000
G1 X26.631 Y11.875 F800.000
G0 X26.694 Y11.963
G0 X26.762 Y12.175
G0 X26.831 Y12.688
G0 X28.244 Y27.262
G1 X28.256 Y27.419 F800.000
G1 X28.288 Y27.806 F800.000
G1 X28.275 Y27.919 F800.000
G1 X28.238 Y28.019 F800.000
G1 X28.175 Y28.100 F800.000
G1 X28.094 Y28.175 F800.000
G1 X27.894 Y28.288 F800.000
G1 X27.669 Y28.350 F800.000
G1 X27.431 Y28.381 F800.000
G1 X27.431 Y28.381 F800.000
G1 X25.631 Y28.356 F800.000
G1 X24.931 Y28.225 F800.000
G1 X24.544 Y28.081 F800.000
G1 X23.762 Y27.569 F800.000
G1 X23.169 Y27.100 F800.000
G1 X22.650 Y26.556 F800.000
G1 X22.281 Y26.094 F800.000
G1 X21.969 Y25.675 F800.000
G1 X21.600 Y25.044 F800.000
G1 X21.075 Y23.950 F800.000
G1 X20.831 Y23.238 F800.000
G1 X20.644 Y22.569 F800.000
G1 X20.481 Y21.850 F800.000
G1 X20.344 Y21.106 F800.000
G1 X20.262 Y20.356 F800.000
G1 X20.219 Y19.606 F800.000
G1 X20.212 Y18.856 F800.000
G1 X20.256 Y18.106 F800.000
G1 X20.337 Y17.356 F800.000
G1 X20.456 Y16.613 F800.000
G1 X20.650 Y15.887 F800.000
G1 X20.844 Y15.269 F800.000
G1 X21.119 Y14.569 F800.000
G1 X21.413 Y13.875 F800.000
G1 X21.756 Y13.206 F800.000
G1 X22.131 Y12.556 F800.000
G1 X22.594 Y11.838 F800.000
G1 X22.819 Y11.650 F800.000
G1 X22.913 Y11.619 F800.000
G1 X22.913 Y11.619 F800.000
G1 X23.269 Y11.662 F800.000
G1 X23.494 Y11.744 F800.000
G1 X23.587 Y11.806 F800.000
G1 X23.675 Y11.875 F800.000
G0 X23.738 Y11.963
G0 X23.819 Y12.175
G0 X23.900 Y12.688
G0 X25.812 Y27.262
G1 X25.837 Y27.419 F800.000
G1 X25.881 Y27.806 F800.000
G1 X25.869 Y27.919 F800.000
G1 X25.831 Y28.019 F800.000
G1 X25.775 Y28.100 F800.000
G1 X25.694 Y28.175 F800.000
G1 X25.494 Y28.288 F800.000
G1 X25.269 Y28.350 F800.000
G1 X25.031 Y28.381 F800.000
G1 X25.031 Y28.381 F800.000
G1 X23.431 Y28.356 F800.000
G1 X22.731 Y28.225 F800.000
G1 X22.344 Y28.081 F800.000
G1 X21.744 Y27.675 F800.000
G1 X21.019 Y27.031 F800.000
G1 X20.506 Y26.475 F800.000
G1 X20.056 Y25.869 F800.000
G1 X19.750 Y25.375 F800.000
G1 X19.219 Y24.331 F800.000
G1 X18.925 Y23.637 F800.000
G1 X18.681 Y22.925 F800.000
G1 X18.469 Y22.200 F800.000
G1 X18.300 Y21.469 F800.000
G1 X18.175 Y20.725 F800.000
G1 X18.119 Y19.975 F800.000
G1 X18.100 Y19.331 F800.000
G1 X18.169 Y17.831 F800.000
G1 X18.269 Y17.087 F800.000
G1 X18.406 Y16.350 F800.000
G1 X18.569 Y15.619 F800.000
G1 X18.781 Y14.894 F800.000
G1 X19.025 Y14.181 F800.000
G1 X19.306 Y13.481 F800.000
G1 X19.625 Y12.800 F800.000
G1 X20.125 Y11.875 F800.000
G1 X20.188 Y11.794 F800.000
G1 X20.344 Y11.669 F800.000
G1 X20.431 Y11.619 F800.000
G1 X20.431 Y11.619 F800.000
G1 X20.788 Y11.662 F800.000
G1 X21.012 Y11.744 F800.000
G1 X21.106 Y11.806 F800.000
G1 X21.194 Y11.875 F800.000
G0 X21.256 Y11.963
G0 X21.344 Y12.175
G0 X21.438 Y12.688
G0 X23.644 Y27.269
G1 X23.669 Y27.425 F800.000
G1 X23.719 Y27.806 F800.000
G1 X23.706 Y27.919 F800.000
G1 X23.675 Y28.019 F800.000
G1 X23.619 Y28.106 F800.000
G1 X23.538 Y28.175 F800.000
G1 X23.337 Y28.288 F800.000
G1 X23.113 Y28.350 F800.000
G1 X22.875 Y28.381 F800.000
G1 X22.875 Y28.381 F800.000
G1 X21.375 Y28.363 F800.000
G1 X20.675 Y28.225 F800.000
G1 X20.288 Y28.069 F800.000
G1 X19.525 Y27.538 F800.000
G1 X18.962 Y27.031 F800.000
G1 X18.456 Y26.469 F800.000
G1 X18.075 Y25.969 F800.000
G1 X17.750 Y25.494 F800.000
G1 X17.406 Y24.869 F800.000
G1 X16.887 Y23.712 F800.000
G1 X16.625 Y23.006 F800.000
G1 X16.419 Y22.281 F800.000
G1 X16.238 Y21.550 F800.000
G1 X16.100 Y20.806 F800.000
G1 X16.006 Y20.056 F800.000
G1 X15.981 Y19.306 F800.000
G1 X15.988 Y18.650 F800.000
G1 X16.106 Y17.150 F800.000
G1 X16.231 Y16.406 F800.000
G1 X16.387 Y15.669 F800.000
G1 X16.569 Y14.938 F800.000
G1 X17.025 Y13.500 F800.000
G1 X17.294 Y12.800 F800.000
G1 X17.762 Y11.863 F800.000
G1 X17.906 Y11.719 F800.000
G1 X17.988 Y11.656 F800.000
G1 X18.081 Y11.625 F800.000
G1 X18.081 Y11.625 F800.000
G1 X18.438 Y11.669 F800.000
G1 X18.663 Y11.750 F800.000
G1 X18.762 Y11.812 F800.000
G1 X18.844 Y11.881 F800.000
G0 X18.906 Y11.969
G0 X18.994 Y12.175
G0 X19.094 Y12.688
G0 X21.475 Y27.269
G1 X21.500 Y27.425 F800.000
G1 X21.550 Y27.806 F800.000
G1 X21.544 Y27.919 F800.000
G1 X21.512 Y28.019 F800.000
G1 X21.456 Y28.106 F800.000
G1 X21.375 Y28.175 F800.000
G1 X21.175 Y28.288 F800.000
G1 X20.950 Y28.350 F800.000
G1 X20.712 Y28.381 F800.000
G1 X20.712 Y28.381 F800.000
G1 X19.312 Y28.363 F800.000
G1 X18.712 Y28.250 F800.000
G1 X18.413 Y28.150 F800.000
G1 X17.700 Y27.712 F800.000
G1 X17.456 Y27.512 F800.000
G1 X16.900 Y27.006 F800.000
G1 X16.394 Y26.450 F800.000
G1 X15.938 Y25.850 F800.000
G1 X15.613 Y25.337 F800.000
G1 X15.331 Y24.825 F800.000
G1 X15.037 Y24.238 F800.000
G1 X14.738 Y23.544 F800.000
G1 X14.488 Y22.831 F800.000
G1 X13.963 Y20.606 F800.000
G1 X13.806 Y17.806 F800.000
G1 X13.919 Y16.406 F800.000
G1 X14.637 Y13.519 F800.000
G1 X14.950 Y12.887 F800.000
G1 X15.006 Y12.806 F800.000
G1 X15.306 Y12.544 F800.000
G1 X16.062 Y12.069 F800.000
G1 X16.512 Y11.881 F800.000
G1 X16.512 Y11.881 F800.000
G1 X16.869 Y11.825 F800.000
G1 X17.113 Y11.838 F800.000
G1 X17.219 Y11.863 F800.000
G1 X17.312 Y11.906 F800.000
G0 X17.387 Y11.975
G0 X17.438 Y12.062
G0 X17.525 Y12.387
G0 X19.569 Y27.262
G1 X19.594 Y27.419 F800.000
G1 X19.637 Y27.806 F800.000
G1 X19.631 Y27.919 F800.000
G1 X19.594 Y28.019 F800.000
G1 X19.538 Y28.100 F800.000
G1 X19.456 Y28.175 F800.000
G1 X19.256 Y28.288 F800.000
G1 X19.031 Y28.350 F800.000
G1 X18.794 Y28.381 F800.000
G1 X18.794 Y28.381 F800.000
G1 X17.494 Y28.344 F800.000
G1 X16.994 Y28.250 F800.000
G1 X16.400 Y28.056 F800.000
G1 X15.844 Y27.775 F800.000
G1 X15.088 Y27.212 F800.000
G1 X14.575 Y26.681 F800.000
G1 X14.206 Y26.181 F800.000
G1 X13.869 Y25.431 F800.000
G1 X13.744 Y25.031 F800.000
G1 X13.644 Y24.431 F800.000
G1 X13.619 Y20.031 F800.000
G1 X13.619 Y20.031 F800.000
G1 X13.619 Y19.781 F800.000
G1 X13.688 Y19.544 F800.000
G1 X13.688 Y19.544 F800.000
G1 X13.688 Y19.663 F800.000
G1 X13.688 Y19.663 F800.000
G1 X13.619 Y19.431 F800.000
G1 X13.619 Y19.188 F800.000
G1 X13.619 Y19.188 F800.000
G1 X13.650 Y15.488 F800.000
G1 X13.825 Y14.688 F800.000
G1 X14.137 Y13.931 F800.000
G1 X14.137 Y13.931 F800.000
G1 X14.275 Y13.731 F800.000
G1 X14.450 Y13.562 F800.000
G1 X14.750 Y13.363 F800.000
G0 X14.856 Y13.300
G0 X16.619 Y12.231
G1 X16.719 Y12.169 F800.000
G1 X17.544 Y11.650 F800.000
G1 X17.775 Y11.562 F800.000
G1 X18.137 Y11.500 F800.000
G1 X18.137 Y11.500 F800.000
G1 X48.844 Y11.500 F800.000
G1 X49.475 Y11.525 F800.000
G1 X49.862 Y11.581 F800.000
G1 X50.194 Y11.662 F800.000
G1 X50.619 Y11.812 F800.000
G1 X50.962 Y11.963 F800.000
G1 X51.256 Y12.113 F800.000
G1 X51.456 Y12.238 F800.000
G1 X52.006 Y12.662 F800.000
G1 X52.200 Y12.838 F800.000
G1 X52.612 Y13.325 F800.000
G1 X52.794 Y13.594 F800.000
G1 X53.019 Y13.994 F800.000
G1 X53.200 Y14.412 F800.000
G1 X53.306 Y14.719 F800.000
G1 X53.450 Y15.363 F800.000
G1 X53.494 Y15.769 F800.000
G1 X53.500 Y23.956 F800.000
G1 X53.450 Y24.594 F800.000
G1 X53.350 Y25.113 F800.000
G1 X53.188 Y25.594 F800.000
G1 X53.025 Y25.975 F800.000
G1 X52.875 Y26.275 F800.000
G1 X52.638 Y26.631 F800.000
G1 X52.400 Y26.944 F800.000
G1 X52.081 Y27.269 F800.000
G1 X51.669 Y27.600 F800.000
G1 X51.312 Y27.844 F800.000
G1 X51.000 Y28.025 F800.000
G1 X50.669 Y28.169 F800.000
G1 X49.975 Y28.381 F800.000
G1 X49.600 Y28.450 F800.000
G1 X49.281 Y28.488 F800.000
G1 X48.850 Y28.500 F800.000
G1 X18.025 Y28.494 F800.000
G1 X17.363 Y28.444 F800.000
G1 X17.125 Y28.406 F800.000
G1 X16.450 Y28.219 F800.000
G1 X16.031 Y28.038 F800.000
G1 X15.675 Y27.844 F800.000
G1 X15.363 Y27.637 F800.000
G1 X14.994 Y27.344 F800.000
G1 X14.594 Y26.938 F800.000
G1 X14.275 Y26.519 F800.000
G1 X14.069 Y26.175 F800.000
G1 X13.900 Y25.825 F800.000
G1 X13.731 Y25.406 F800.000
G1 X13.600 Y24.913 F800.000
G1 X13.525 Y24.525 F800.000
G1 X13.500 Y23.988 F800.000
G1 X13.500 Y16.144 F800.000
G1 X13.525 Y15.531 F800.000
G1 X13.562 Y15.244 F800.000
G1 X13.662 Y14.806 F800.000
G1 X13.919 Y14.106 F800.000
G1 X13.994 Y13.938 F800.000
G1 X14.419 Y13.275 F800.000
G1 X14.544 Y13.113 F800.000
G1 X14.931 Y12.713 F800.000
G1 X15.350 Y12.363 F800.000
G1 X15.619 Y12.181 F800.000
G1 X16.012 Y11.963 F800.000
G1 X16.394 Y11.800 F800.000
G1 X16.969 Y11.619 F800.000
G1 X17.475 Y11.531 F800.000
G1 X17.663 Y11.512 F800.000
G1 X18.137 Y11.500 F800.000
G1 X18.137 Y11.500 F800.000
G0 Z5.000
(Helix to depth: -2.000000)
G0 Z5.000
G0 X35.590 Y19.195 Z5.000
G0 X35.590 Y19.195 Z3.000
G1 X35.590 Y19.195 Z-1.000 F200.000
G1 X35.590 Y19.195 Z-1.000 F200.000
G1 X35.707 Y19.618 Z-1.039 F200.000
G1 X35.739 Y20.056 Z-1.077 F200.000
G1 X35.685 Y20.492 Z-1.116 F200.000
G1 X35.547 Y20.909 Z-1.155 F200.000
G1 X35.331 Y21.291 Z-1.193 F200.000
G1 X35.044 Y21.623 Z-1.232 F200.000
G1 X34.697 Y21.893 Z-1.271 F200.000
G1 X34.305 Y22.090 Z-1.309 F200.000
G1 X33.882 Y22.207 Z-1.348 F200.000
G1 X33.444 Y22.239 Z-1.387 F200.000
G1 X33.008 Y22.185 Z-1.425 F200.000
G1 X32.591 Y22.047 Z-1.464 F200.000
G1 X32.209 Y21.831 Z-1.502 F200.000
G1 X31.877 Y21.544 Z-1.541 F200.000
G1 X31.607 Y21.197 Z-1.580 F200.000
G1 X31.410 Y20.805 Z-1.618 F200.000
G1 X31.293 Y20.382 Z-1.657 F200.000
G1 X31.261 Y19.944 Z-1.696 F200.000
G1 X31.315 Y19.508 Z-1.734 F200.000
G1 X31.453 Y19.091 Z-1.773 F200.000
G1 X31.669 Y18.709 Z-1.812 F200.000
G1 X31.956 Y18.377 Z-1.850 F200.000
G1 X32.303 Y18.107 Z-1.889 F200.000
G1 X32.695 Y17.910 Z-1.928 F200.000
G1 X33.118 Y17.793 Z-1.966 F200.000
G1 X33.500 Y17.760 Z-2.000 F800.000
G1 X33.937 Y17.803 Z-2.000 F800.000
G1 X34.357 Y17.931 Z-2.000 F800.000
G1 X34.744 Y18.138 Z-2.000 F800.000
G1 X35.084 Y18.416 Z-2.000 F800.000
G1 X35.362 Y18.756 Z-2.000 F800.000
G1 X35.569 Y19.143 Z-2.000 F800.000
G1 X35.697 Y19.563 Z-2.000 F800.000
G1 X35.740 Y20.000 Z-2.000 F800.000
G1 X35.697 Y20.437 Z-2.000 F800.000
G1 X35.569 Y20.857 Z-2.000 F800.000
G1 X35.362 Y21.244 Z-2.000 F800.000
G1 X35.084 Y21.584 Z-2.000 F800.000
G1 X34.744 Y21.862 Z-2.000 F800.000
G1 X34.357 Y22.069 Z-2.000 F800.000
G1 X33.937 Y22.197 Z-2.000 F800.000
G1 X33.500 Y22.240 Z-2.000 F800.000
G1 X33.063 Y22.197 Z-2.000 F800.000
G1 X32.643 Y22.069 Z-2.000 F800.000
G1 X32.256 Y21.862 Z-2.000 F800.000
G1 X31.916 Y21.584 Z-2.000 F800.000
G1 X31.638 Y21.244 Z-2.000 F800.000
G1 X31.431 Y20.857 Z-2.000 F800.000
G1 X31.303 Y20.437 Z-2.000 F800.000
G1 X31.260 Y20.000 Z-2.000 F800.000
G1 X31.303 Y19.563 Z-2.000 F800.000
G1 X31.431 Y19.143 Z-2.000 F800.000
G1 X31.638 Y18.756 Z-2.000 F800.000
G1 X31.916 Y18.416 Z-2.000 F800.000
G1 X32.256 Y18.138 Z-2.000 F800.000
G1 X32.643 Y17.931 Z-2.000 F800.000
G1 X33.063 Y17.803 Z-2.000 F800.000
G1 X33.500 Y17.760 Z-2.000 F800.000
(Adaptive - depth: -2.000000)
G1 X33.500 Y17.750 F800.000
G1 X33.569 Y17.675 F800.000
G1 X33.619 Y17.587 F800.000
G1 X33.688 Y17.512 F800.000
G1 X33.944 Y17.356 F800.000
G1 X34.219 Y17.262 F800.000
G1 X34.806 Y17.244 F800.000
G1 X35.194 Y17.325 F800.000
G1 X35.431 Y17.413 F800.000
G1 X35.663 Y17.525 F800.000
G1 X35.962 Y17.719 F800.000
G1 X36.269 Y18.012 F800.000
G1 X36.487 Y18.269 F800.000
G1 X36.688 Y18.581 F800.000
G1 X36.844 Y18.925 F800.000
G1 X36.950 Y19.269 F800.000
G1 X37.038 Y19.631 F800.000
G1 X37.075 Y20.144 F800.000
G1 X37.062 Y20.544 F800.000
G1 X36.987 Y20.962 F800.000
G1 X36.881 Y21.312 F800.000
G1 X36.719 Y21.675 F800.000
G1 X36.525 Y22.019 F800.000
G1 X36.237 Y22.406 F800.000
G1 X35.950 Y22.712 F800.000
G1 X35.625 Y22.994 F800.000
G1 X35.256 Y23.238 F800.000
G1 X34.862 Y23.413 F800.000
G1 X34.531 Y23.525 F800.000
G1 X34.138 Y23.619 F800.000
G1 X33.663 Y23.656 F800.000
G1 X33.263 Y23.650 F800.000
G1 X32.837 Y23.594 F800.000
G1 X32.413 Y23.506 F800.000
G1 X31.881 Y23.325 F800.000
G1 X31.475 Y23.094 F800.000
G1 X31.200 Y22.900 F800.000
G1 X30.931 Y22.669 F800.000
G1 X30.613 Y22.325 F800.000
G1 X30.331 Y21.938 F800.000
G1 X30.131 Y21.556 F800.000
G1 X29.988 Y21.206 F800.000
G1 X29.881 Y20.800 F800.000
G1 X29.825 Y20.394 F800.000
G1 X29.788 Y19.994 F800.000
G1 X29.825 Y19.425 F800.000
G1 X29.900 Y18.988 F800.000
G1 X30.056 Y18.550 F800.000
G1 X30.194 Y18.250 F800.000
G1 X30.413 Y17.906 F800.000
G1 X30.644 Y17.587 F800.000
G1 X30.994 Y17.194 F800.000
G1 X31.394 Y16.800 F800.000
G1 X31.906 Y16.387 F800.000
G1 X32.406 Y16.100 F800.000
G1 X32.769 Y15.919 F800.000
G1 X33.256 Y15.738 F800.000
G1 X33.731 Y15.625 F800.000
G1 X34.194 Y15.588 F800.000
G1 X34.550 Y15.588 F800.000
G1 X34.975 Y15.644 F800.000
G1 X35.375 Y15.719 F800.000
G1 X35.944 Y15.912 F800.000
G1 X36.369 Y16.106 F800.000
G1 X36.775 Y16.369 F800.000
G1 X37.069 Y16.600 F800.000
G1 X37.381 Y16.913 F800.000
G1 X37.663 Y17.231 F800.000
G1 X37.987 Y17.712 F800.000
G1 X38.212 Y18.131 F800.000
G1 X38.406 Y18.581 F800.000
G1 X38.556 Y19.075 F800.000
G1 X38.656 Y19.556 F800.000
G1 X38.706 Y20.050 F800.000
G1 X38.706 Y20.550 F800.000
G1 X38.656 Y21.044 F800.000
G1 X38.538 Y21.525 F800.000
G1 X38.406 Y21.900 F800.000
G1 X38.231 Y22.325 F800.000
G1 X37.956 Y22.844 F800.000
G1 X37.625 Y23.350 F800.000
G1 X37.256 Y23.750 F800.000
G1 X36.975 Y24.019 F800.000
G1 X36.581 Y24.319 F800.000
G1 X36.194 Y24.581 F800.000
G1 X35.619 Y24.881 F800.000
G1 X35.131 Y25.081 F800.000
G1 X34.606 Y25.212 F800.000
G1 X34.194 Y25.281 F800.000
G1 X33.706 Y25.312 F800.000
G1 X33.231 Y25.325 F800.000
G1 X32.500 Y25.250 F800.000
G1 X31.969 Y25.125 F800.000
G1 X31.550 Y25.000 F800.000
G1 X31.044 Y24.781 F800.000
G1 X30.606 Y24.531 F800.000
G1 X30.200 Y24.256 F800.000
G1 X29.812 Y23.925 F800.000
G1 X29.462 Y23.562 F800.000
G1 X29.150 Y23.169 F800.000
G1 X28.875 Y22.744 F800.000
G1 X28.644 Y22.294 F800.000
G1 X28.456 Y21.825 F800.000
G1 X28.294 Y21.350 F800.000
G1 X28.163 Y20.719 F800.000
G1 X28.094 Y20.181 F800.000
G1 X28.094 Y19.625 F800.000
G1 X28.131 Y19.169 F800.000
G1 X28.225 Y18.663 F800.000
G1 X28.369 Y18.175 F800.000
G1 X28.550 Y17.719 F800.000
G1 X28.762 Y17.262 F800.000
G1 X29.100 Y16.712 F800.000
G1 X29.419 Y16.281 F800.000
G1 X29.781 Y15.863 F800.000
G1 X30.181 Y15.450 F800.000
G1 X30.744 Y14.981 F800.000
G1 X31.238 Y14.625 F800.000
G1 X31.800 Y14.338 F800.000
G1 X32.181 Y14.169 F800.000
G1 X32.694 Y14.006 F800.000
G1 X33.188 Y13.887 F800.000
G1 X33.812 Y13.800 F800.000
G1 X34.362 Y13.769 F800.000
G1 X34.919 Y13.787 F800.000
G1 X35.487 Y13.887 F800.000
G1 X35.913 Y13.994 F800.000
G1 X36.400 Y14.169 F800.000
G1 X36.862 Y14.363 F800.000
G1 X37.462 Y14.694 F800.000
G1 X37.925 Y15.006 F800.000
G1 X38.375 Y15.356 F800.000
G1 X38.812 Y15.769 F800.000
G1 X39.169 Y16.219 F800.000
G1 X39.419 Y16.575 F800.000
G1 X39.694 Y17.025 F800.000
G1 X39.969 Y17.644 F800.000
G1 X40.150 Y18.137 F800.000
G1 X40.306 Y18.688 F800.000
G1 X40.406 Y19.262 F800.000
G1 X40.456 Y19.819 F800.000
G1 X40.456 Y20.387 F800.000
G1 X40.406 Y20.956 F800.000
G1 X40.312 Y21.512 F800.000
G1 X40.169 Y22.069 F800.000
G1 X40.006 Y22.619 F800.000
G1 X39.725 Y23.312 F800.000
G1 X39.406 Y23.875 F800.000
G1 X39.131 Y24.269 F800.000
G1 X38.819 Y24.650 F800.000
G1 X38.462 Y25.044 F800.000
G1 X37.913 Y25.525 F800.000
G1 X37.456 Y25.869 F800.000
G1 X36.950 Y26.194 F800.000
G1 X36.394 Y26.481 F800.000
G1 X35.837 Y26.719 F800.000
G1 X35.263 Y26.913 F800.000
G1 X34.663 Y27.056 F800.000
G1 X34.062 Y27.150 F800.000
G1 X33.456 Y27.169 F800.000
G1 X32.981 Y27.150 F800.000
G1 X31.887 Y26.988 F800.000
G1 X31.163 Y26.788 F800.000
G1 X30.562 Y26.581 F800.000
G1 X29.969 Y26.275 F800.000
G1 X29.581 Y26.044 F800.000
G1 X29.131 Y25.712 F800.000
G1 X28.712 Y25.369 F800.000
G1 X28.188 Y24.850 F800.000
G1 X27.794 Y24.394 F800.000
G1 X27.425 Y23.900 F800.000
G1 X27.081 Y23.350 F800.000
G1 X26.825 Y22.781 F800.000
G1 X26.650 Y22.337 F800.000
G1 X26.369 Y21.250 F800.000
G1 X26.269 Y20.506 F800.000
G1 X26.231 Y19.875 F800.000
G1 X26.262 Y19.219 F800.000
G1 X26.319 Y18.700 F800.000
G1 X26.438 Y18.119 F800.000
G1 X26.606 Y17.556 F800.000
G1 X26.812 Y17.031 F800.000
G1 X27.044 Y16.494 F800.000
G1 X27.413 Y15.838 F800.000
G1 X27.769 Y15.294 F800.000
G1 X28.175 Y14.744 F800.000
G1 X28.650 Y14.200 F800.000
G1 X29.156 Y13.744 F800.000
G1 X29.556 Y13.419 F800.000
G1 X30.075 Y13.075 F800.000
G1 X30.594 Y12.794 F800.000
G1 X32.319 Y12.100 F800.000
G1 X33.631 Y11.844 F800.000
G1 X35.506 Y11.838 F800.000
G1 X36.538 Y12.069 F800.000
G1 X37.531 Y12.431 F800.000
G1 X38.181 Y12.794 F800.000
G1 X38.806 Y13.200 F800.000
G1 X39.362 Y13.637 F800.000
G1 X39.819 Y14.037 F800.000
G1 X40.331 Y14.562 F800.000
G1 X40.769 Y15.088 F800.000
G1 X41.138 Y15.650 F800.000
G1 X41.388 Y16.094 F800.000
G1 X41.644 Y16.644 F800.000
G1 X41.862 Y17.188 F800.000
G1 X42.075 Y17.900 F800.000
G1 X42.219 Y18.538 F800.000
G1 X42.325 Y19.200 F800.000
G1 X42.381 Y19.900 F800.000
G1 X42.388 Y20.575 F800.000
G1 X42.344 Y21.256 F800.000
G1 X42.250 Y21.931 F800.000
G1 X42.075 Y22.594 F800.000
G1 X41.913 Y23.094 F800.000
G1 X41.669 Y23.669 F800.000
G1 X41.413 Y24.212 F800.000
G1 X41.031 Y24.856 F800.000
G1 X40.650 Y25.413 F800.000
G1 X40.225 Y25.956 F800.000
G1 X39.731 Y26.494 F800.000
G1 X39.225 Y26.975 F800.000
G1 X38.650 Y27.400 F800.000
G1 X38.231 Y27.675 F800.000
G1 X37.219 Y28.169 F800.000
G1 X36.419 Y28.369 F800.000
G1 X30.919 Y28.344 F800.000
G1 X30.419 Y28.275 F800.000
G1 X29.819 Y28.119 F800.000
G1 X28.613 Y27.538 F800.000
G1 X27.962 Y27.150 F800.000
G1 X27.375 Y26.675 F800.000
G1 X26.900 Y26.231 F800.000
G1 X26.512 Y25.812 F800.000
G1 X26.131 Y25.356 F800.000
G1 X25.706 Y24.731 F800.000
G1 X25.381 Y24.181 F800.000
G1 X25.075 Y23.581 F800.000
G1 X24.812 Y22.938 F800.000
G1 X24.606 Y22.306 F800.000
G1 X24.444 Y21.650 F800.000
G1 X24.331 Y20.975 F800.000
G1 X24.269 Y20.300 F800.000
G1 X24.256 Y19.625 F800.000
G1 X24.294 Y18.950 F800.000
G1 X24.375 Y18.275 F800.000
G1 X24.506 Y17.613 F800.000
G1 X24.688 Y16.962 F800.000
G1 X24.919 Y16.325 F800.000
G1 X25.194 Y15.706 F800.000
G1 X25.512 Y15.113 F800.000
G1 X25.850 Y14.525 F800.000
G1 X26.281 Y13.906 F800.000
G1 X26.744 Y13.319 F800.000
G1 X27.238 Y12.756 F800.000
G1 X28.250 Y11.863 F800.000
G1 X28.506 Y11.713 F800.000
G1 X28.681 Y11.637 F800.000
G1 X28.775 Y11.619 F800.000
G1 X31.494 Y11.619 F800.000
G1 X31.494 Y11.619 F800.000
G1 X31.525 Y11.631 F800.000
G1 X31.519 Y11.637 F800.000
G1 X31.581 Y11.619 F800.000
G1 X31.581 Y11.619 F800.000
G1 X32.987 Y11.619 F800.000
G1 X32.987 Y11.619 F800.000
G1 X33.206 Y11.650 F800.000
G1 X33.275 Y11.669 F800.000
G1 X33.312 Y11.688 F800.000
G1 X33.744 Y11.619 F800.000
G1 X33.744 Y11.619 F800.000
G1 X38.712 Y11.637 F800.000
G1 X39.462 Y11.756 F800.000
G1 X39.744 Y11.838 F800.000
G1 X40.006 Y11.956 F800.000
G1 X40.737 Y12.419 F800.000
G1 X41.306 Y12.900 F800.000
G1 X41.825 Y13.431 F800.000
G1 X42.244 Y13.925 F800.000
G1 X42.606 Y14.412 F800.000
G1 X42.975 Y15.019 F800.000
G1 X43.275 Y15.600 F800.000
G1 X43.781 Y16.825 F800.000
G1 X43.994 Y17.538 F800.000
G1 X44.169 Y18.262 F800.000
G1 X44.306 Y18.994 F800.000
G1 X44.388 Y19.738 F800.000
G1 X44.394 Y20.481 F800.000
G1 X44.369 Y21.062 F800.000
G1 X44.281 Y21.781 F800.000
G1 X44.144 Y22.456 F800.000
G1 X43.969 Y23.094 F800.000
G1 X43.737 Y23.744 F800.000
G1 X43.494 Y24.375 F800.000
G1 X43.169 Y25.050 F800.000
G1 X42.800 Y25.700 F800.000
G1 X42.400 Y26.331 F800.000
G1 X41.956 Y26.938 F800.000
G1 X41.481 Y27.512 F800.000
G1 X40.969 Y28.062 F800.000
G1 X40.800 Y28.175 F800.000
G1 X40.431 Y28.350 F800.000
G1 X40.337 Y28.381 F800.000
G1 X37.038 Y28.381 F800.000
G1 X37.038 Y28.381 F800.000
G1 X36.788 Y28.350 F800.000
G1 X36.550 Y28.288 F800.000
G1 X36.337 Y28.175 F800.000
G1 X36.263 Y28.100 F800.000
G0 X36.206 Y28.012
G0 X36.181 Y27.913
G0 X36.194 Y27.575
G0 X38.462 Y12.694
G1 X38.487 Y12.519 F800.000
G1 X38.544 Y12.225 F800.000
G1 X38.587 Y12.094 F800.000
G1 X38.644 Y11.981 F800.000
G1 X38.719 Y11.887 F800.000
G1 X38.812 Y11.812 F800.000
G1 X39.025 Y11.700 F800.000
G1 X39.256 Y11.644 F800.000
G1 X39.506 Y11.619 F800.000
G1 X39.506 Y11.619 F800.000
G1 X41.475 Y11.644 F800.000
G1 X42.131 Y11.775 F800.000
G1 X42.487 Y11.931 F800.000
G1 X43.175 Y12.438 F800.000
G1 X43.700 Y12.963 F800.000
G1 X44.175 Y13.537 F800.000
G1 X44.494 Y13.981 F800.000
G1 X45.112 Y15.031 F800.000
G1 X45.419 Y15.713 F800.000
G1 X45.675 Y16.381 F800.000
G1 X45.913 Y17.087 F800.000
G1 X46.094 Y17.812 F800.000
G1 X46.231 Y18.544 F800.000
G1 X46.325 Y19.288 F800.000
G1 X46.369 Y20.031 F800.000
G1 X46.369 Y20.775 F800.000
G1 X46.319 Y21.519 F800.000
G1 X46.219 Y22.262 F800.000
G1 X46.075 Y22.994 F800.000
G1 X45.888 Y23.719 F800.000
G1 X45.650 Y24.431 F800.000
G1 X45.369 Y25.125 F800.000
G1 X45.044 Y25.800 F800.000
G1 X44.306 Y27.106 F800.000
G1 X43.819 Y27.800 F800.000
G1 X43.475 Y28.169 F800.000
G1 X43.125 Y28.369 F800.000
G1 X41.525 Y28.381 F800.000
G1 X41.525 Y28.381 F800.000
G1 X41.275 Y28.350 F800.000
G1 X41.038 Y28.288 F800.000
G1 X40.825 Y28.175 F800.000
G1 X40.744 Y28.100 F800.000
G0 X40.688 Y28.012
G0 X40.650 Y27.913
G0 X40.619 Y27.569
G0 X40.962 Y12.700
G1 X40.969 Y12.525 F800.000
G1 X40.981 Y12.225 F800.000
G1 X41.013 Y12.094 F800.000
G1 X41.056 Y11.981 F800.000
G1 X41.125 Y11.887 F800.000
G1 X41.212 Y11.812 F800.000
G1 X41.425 Y11.700 F800.000
G1 X41.656 Y11.644 F800.000
G1 X41.906 Y11.619 F800.000
G1 X41.906 Y11.619 F800.000
G1 X43.688 Y11.644 F800.000
G1 X44.344 Y11.762 F800.000
G1 X44.694 Y11.912 F800.000
G1 X45.375 Y12.450 F800.000
G1 X45.888 Y12.994 F800.000
G1 X46.344 Y13.588 F800.000
G1 X46.688 Y14.106 F800.000
G1 X47.006 Y14.656 F800.000
G1 X47.312 Y15.306 F800.000
G1 X47.575 Y15.906 F800.000
G1 X47.812 Y16.613 F800.000
G1 X48.006 Y17.331 F800.000
G1 X48.163 Y18.062 F800.000
G1 X48.294 Y18.800 F800.000
G1 X48.369 Y19.544 F800.000
G1 X48.406 Y20.288 F800.000
G1 X48.406 Y21.031 F800.000
G1 X48.362 Y21.775 F800.000
G1 X48.281 Y22.519 F800.000
G1 X48.163 Y23.256 F800.000
G1 X48.000 Y23.988 F800.000
G1 X47.800 Y24.706 F800.000
G1 X47.562 Y25.413 F800.000
G1 X47.288 Y26.106 F800.000
G1 X46.944 Y26.769 F800.000
G1 X46.619 Y27.337 F800.000
G1 X46.206 Y27.962 F800.000
G1 X46.006 Y28.181 F800.000
G1 X45.750 Y28.350 F800.000
G1 X45.656 Y28.381 F800.000
G1 X44.056 Y28.381 F800.000
G1 X44.056 Y28.381 F800.000
G1 X43.806 Y28.350 F800.000
G1 X43.569 Y28.288 F800.000
G1 X43.356 Y28.175 F800.000
G1 X43.275 Y28.100 F800.000
G0 X43.212 Y28.012
G0 X43.181 Y27.913
G0 X43.144 Y27.569
G0 X43.369 Y12.700
G1 X43.375 Y12.525 F800.000
G1 X43.388 Y12.225 F800.000
G1 X43.413 Y12.094 F800.000
G1 X43.462 Y11.981 F800.000
G1 X43.531 Y11.887 F800.000
G1 X43.612 Y11.812 F800.000
G1 X43.825 Y11.700 F800.000
G1 X44.056 Y11.644 F800.000
G1 X44.306 Y11.619 F800.000
G1 X44.306 Y11.619 F800.000
G1 X45.806 Y11.644 F800.000
G1 X46.462 Y11.775 F800.000
G1 X46.731 Y11.887 F800.000
G1 X47.481 Y12.475 F800.000
G1 X47.994 Y13.019 F800.000
G1 X48.444 Y13.613 F800.000
G1 X48.794 Y14.162 F800.000
G1 X49.087 Y14.669 F800.000
G1 X49.394 Y15.338 F800.000
G1 X49.644 Y15.938 F800.000
G1 X49.875 Y16.644 F800.000
G1 X50.056 Y17.369 F800.000
G1 X50.331 Y18.837 F800.000
G1 X50.400 Y19.581 F800.000
G1 X50.438 Y20.325 F800.000
G1 X50.444 Y21.069 F800.000
G1 X50.400 Y21.812 F800.000
G1 X50.325 Y22.556 F800.000
G1 X50.094 Y24.031 F800.000
G1 X49.925 Y24.762 F800.000
G1 X49.731 Y25.481 F800.000
G1 X49.475 Y26.188 F800.000
G1 X49.200 Y26.881 F800.000
G1 X48.856 Y27.544 F800.000
G1 X48.519 Y28.125 F800.000
G1 X48.194 Y28.350 F800.000
G1 X48.094 Y28.381 F800.000
G1 X46.794 Y28.381 F800.000
G1 X46.794 Y28.381 F800.000
G1 X46.544 Y28.350 F800.000
G1 X46.306 Y28.288 F800.000
G1 X46.094 Y28.175 F800.000
G1 X46.013 Y28.100 F800.000
G0 X45.950 Y28.012
G0 X45.888 Y27.800
G0 X45.856 Y27.281
G0 X45.550 Y12.700
G1 X45.550 Y12.525 F800.000
G1 X45.556 Y12.225 F800.000
G1 X45.575 Y12.094 F800.000
G1 X45.619 Y11.981 F800.000
G1 X45.688 Y11.887 F800.000
G1 X45.775 Y11.812 F800.000
G1 X45.981 Y11.700 F800.000
G1 X46.212 Y11.644 F800.000
G1 X46.462 Y11.619 F800.000
G1 X46.462 Y11.619 F800.000
G1 X47.869 Y11.637 F800.000
G1 X48.525 Y11.762 F800.000
G1 X48.881 Y11.912 F800.000
G1 X49.550 Y12.450 F800.000
G1 X50.119 Y13.075 F800.000
G1 X50.556 Y13.675 F800.000
G1 X50.894 Y14.206 F800.000
G1 X51.206 Y14.762 F800.000
G1 X51.513 Y15.444 F800.000
G1 X51.744 Y16.075 F800.000
G1 X52.125 Y17.406 F800.000
G1 X52.263 Y18.137 F800.000
G1 X52.362 Y18.875 F800.000
G1 X52.494 Y20.363 F800.000
G1 X52.500 Y21.106 F800.000
G1 X52.481 Y21.850 F800.000
G1 X52.444 Y22.594 F800.000
G1 X52.369 Y23.337 F800.000
G1 X52.269 Y24.075 F800.000
G1 X52.106 Y24.806 F800.000
G1 X51.925 Y25.531 F800.000
G1 X51.700 Y26.244 F800.000
G1 X51.438 Y26.944 F800.000
G1 X51.106 Y27.556 F800.000
G1 X50.856 Y27.863 F800.000
G1 X50.706 Y28.000 F800.000
G1 X50.525 Y28.094 F800.000
G1 X49.938 Y28.269 F800.000
G1 X48.938 Y28.381 F800.000
G1 X48.737 Y28.381 F800.000
G1 X48.737 Y28.381 F800.000
G1 X48.487 Y28.350 F800.000
G1 X48.250 Y28.288 F800.000
G1 X48.038 Y28.175 F800.000
G1 X47.956 Y28.100 F800.000
G0 X47.894 Y28.012
G0 X47.831 Y27.800
G0 X47.800 Y27.281
G0 X47.475 Y12.700
G1 X47.475 Y12.525 F800.000
G1 X47.475 Y12.225 F800.000
G1 X47.494 Y12.094 F800.000
G1 X47.538 Y11.981 F800.000
G1 X47.606 Y11.887 F800.000
G1 X47.694 Y11.812 F800.000
G1 X47.900 Y11.700 F800.000
G1 X48.131 Y11.644 F800.000
G1 X48.381 Y11.619 F800.000
G1 X48.381 Y11.619 F800.000
G1 X49.413 Y11.637 F800.000
G1 X50.163 Y11.781 F800.000
G1 X50.706 Y11.981 F800.000
G1 X51.450 Y12.419 F800.000
G1 X52.156 Y13.069 F800.000
G1 X52.919 Y14.181 F800.000
G1 X53.225 Y14.881 F800.000
G1 X53.350 Y15.537 F800.000
G1 X53.362 Y24.350 F800.000
G1 X53.294 Y24.819 F800.000
G1 X53.106 Y25.475 F800.000
G1 X52.869 Y26.019 F800.000
G1 X52.506 Y26.606 F800.000
G1 X51.975 Y27.206 F800.000
G1 X51.263 Y27.738 F800.000
G1 X50.906 Y27.931 F800.000
G1 X50.906 Y27.931 F800.000
G1 X50.544 Y28.012 F800.000
G1 X50.300 Y28.019 F800.000
G1 X50.056 Y27.981 F800.000
G0 X49.938 Y27.950
G0 X47.781 Y27.200
G0 X46.581 Y27.056
G0 X44.631 Y27.131
G0 X34.869 Y27.113
G0 X33.544 Y27.181
G0 X31.881 Y27.781
G1 X31.762 Y27.825 F800.000
G1 X31.425 Y27.969 F800.000
G1 X30.894 Y28.244 F800.000
G1 X30.669 Y28.325 F800.000
G1 X30.312 Y28.381 F800.000
G1 X30.312 Y28.381 F800.000
G1 X28.012 Y28.356 F800.000
G1 X27.312 Y28.231 F800.000
G1 X27.012 Y28.131 F800.000
G1 X26.469 Y27.831 F800.000
G1 X26.031 Y27.538 F800.000
G1 X25.431 Y27.081 F800.000
G1 X24.887 Y26.562 F800.000
G1 X24.450 Y26.075 F800.000
G1 X24.094 Y25.644 F800.000
G1 X23.675 Y25.019 F800.000
G1 X23.356 Y24.456 F800.000
G1 X23.075 Y23.875 F800.000
G1 X22.831 Y23.244 F800.000
G1 X22.644 Y22.613 F800.000
G1 X22.500 Y21.969 F800.000
G1 X22.375 Y21.312 F800.000
G1 X22.300 Y20.562 F800.000
G1 X22.269 Y19.819 F800.000
G1 X22.275 Y19.069 F800.000
G1 X22.337 Y18.319 F800.000
G1 X22.444 Y17.575 F800.000
G1 X22.594 Y16.837 F800.000
G1 X22.794 Y16.113 F800.000
G1 X23.038 Y15.400 F800.000
G1 X23.325 Y14.706 F800.000
G1 X23.656 Y14.031 F800.000
G1 X24.056 Y13.394 F800.000
G1 X25.169 Y11.869 F800.000
G1 X25.494 Y11.644 F800.000
G1 X25.587 Y11.619 F800.000
G1 X25.869 Y11.619 F800.000
G1 X25.869 Y11.619 F800.000
G1 X26.225 Y11.662 F800.000
G1 X26.450 Y11.744 F800.000
G1 X26.544 Y11.806 F800.000
G1 X26.631 Y11.875 F800.000
G0 X26.694 Y11.963
G0 X26.762 Y12.175
G0 X26.831 Y12.688
G0 X28.244 Y27.262
G1 X28.256 Y27.419 F800.000
G1 X28.288 Y27.806 F800.000
G1 X28.275 Y27.919 F800.000
G1 X28.238 Y28.019 F800.000
G1 X28.175 Y28.100 F800.000
G1 X28.094 Y28.175 F800.000
G1 X27.894 Y28.288 F800.000
G1 X27.669 Y28.350 F800.000
G1 X27.431 Y28.381 F800.000
G1 X27.431 Y28.381 F800.000
G1 X25.631 Y28.356 F800.000
G1 X24.931 Y28.225 F800.000
G1 X24.544 Y28.081 F800.000
G1 X23.762 Y27.569 F800.000
G1 X23.169 Y27.100 F800.000
G1 X22.650 Y26.556 F800.000
G1 X22.281 Y26.094 F800.000
G1 X21.969 Y25.675 F800.000
G1 X21.600 Y25.044 F800.000
G1 X21.075 Y23.950 F800.000
G1 X20.831 Y23.238 F800.000
G1 X20.644 Y22.569 F800.000
G1 X20.481 Y21.850 F800.000
G1 X20.344 Y21.106 F800.000
G1 X20.262 Y20.356 F800.000
G1 X20.219 Y19.606 F800.000
G1 X20.212 Y18.856 F800.000
G1 X20.256 Y18.106 F800.000
G1 X20.337 Y17.356 F800.000
G1 X20.456 Y16.613 F800.000
G1 X20.650 Y15.887 F800.000
G1 X20.844 Y15.269 F800.000
G1 X21.119 Y14.569 F800.000
G1 X21.413 Y13.875 F800.000
G1 X21.756 Y13.206 F800.000
G1 X22.131 Y12.556 F800.000
G1 X22.594 Y11.838 F800.000
G1 X22.819 Y11.650 F800.000
G1 X22.913 Y11.619 F800.000
G1 X22.913 Y11.619 F800.000
G1 X23.269 Y11.662 F800.000
G1 X23.494 Y11.744 F800.000
G1 X23.587 Y11.806 F800.000
G1 X23.675 Y11.875 F800.000
G0 X23.738 Y11.963
G0 X23.819 Y12.175
G0 X23.900 Y12.688
G0 X25.812 Y27.262
G1 X25.837 Y27.419 F800.000
G1 X25.881 Y27.806 F800.000
G1 X25.869 Y27.919 F800.000
G1 X25.831 Y28.019 F800.000
G1 X25.775 Y28.100 F800.000
G1 X25.694 Y28.175 F800.000
G1 X25.494 Y28.288 F800.000
G1 X25.269 Y28.350 F800.000
G1 X25.031 Y28.381 F800.000
G1 X25.031 Y28.381 F800.000
G1 X23.431 Y28.356 F800.000
G1 X22.731 Y28.225 F800.000
G1 X22.344 Y28.081 F800.000
G1 X21.744 Y27.675 F800.000
G1 X21.019 Y27.031 F800.000
G1 X20.506 Y26.475 F800.000
G1 X20.056 Y25.869 F800.000
G1 X19.750 Y25.375 F800.000
G1 X19.219 Y24.331 F800.000
G1 X18.925 Y23.637 F800.000
G1 X18.681 Y22.925 F800.000
G1 X18.469 Y22.200 F800.000
G1 X18.300 Y21.469 F800.000
G1 X18.175 Y20.725 F800.000
G1 X18.119 Y19.975 F800.000
G1 X18.100 Y19.331 F800.000
G1 X18.169 Y17.831 F800.000
G1 X18.269 Y17.087 F800.000
G1 X18.406 Y16.350 F800.000
G1 X18.569 Y15.619 F800.000
G1 X18.781 Y14.894 F800.000
G1 X19.025 Y14.181 F800.000
G1 X19.306 Y13.481 F800.000
G1 X19.625 Y12.800 F800.000
G1 X20.125 Y11.875 F800.000
G1 X20.188 Y11.794 F800.000
G1 X20.344 Y11.669 F800.000
G1 X20.431 Y11.619 F800.000
G1 X20.431 Y11.619 F800.000
G1 X20.788 Y11.662 F800.000
G1 X21.012 Y11.744 F800.000
G1 X21.106 Y11.806 F800.000
G1 X21.194 Y11.875 F800.000
G0 X21.256 Y11.963
G0 X21.344 Y12.175
G0 X21.438 Y12.688
G0 X23.644 Y27.269
G1 X23.669 Y27.425 F800.000
G1 X23.719 Y27.806 F800.000
G1 X23.706 Y27.919 F800.000
G1 X23.675 Y28.019 F800.000
G1 X23.619 Y28.106 F800.000
G1 X23.538 Y28.175 F800.000
G1 X23.337 Y28.288 F800.000
G1 X23.113 Y28.350 F800.000
G1 X22.875 Y28.381 F800.000
G1 X22.875 Y28.381 F800.000
G1 X21.375 Y28.363 F800.000
G1 X20.675 Y28.225 F800.000
G1 X20.288 Y28.069 F800.000
G1 X19.525 Y27.538 F800.000
G1 X18.962 Y27.031 F800.000
G1 X18.456 Y26.469 F800.000
G1 X18.075 Y25.969 F800.000
G1 X17.750 Y25.494 F800.000
G1 X17.406 Y24.869 F800.000
G1 X16.887 Y23.712 F800.000
G1 X16.625 Y23.006 F800.000
G1 X16.419 Y22.281 F800.000
G1 X16.238 Y21.550 F800.000
G1 X16.100 Y20.806 F800.000
G1 X16.006 Y20.056 F800.000
G1 X15.981 Y19.306 F800.000
G1 X15.988 Y18.650 F800.000
G1 X16.106 Y17.150 F800.000
G1 X16.231 Y16.406 F800.000
G1 X16.387 Y15.669 F800.000
G1 X16.569 Y14.938 F800.000
G1 X17.025 Y13.500 F800.000
G1 X17.294 Y12.800 F800.000
G1 X17.762 Y11.863 F800.000
G1 X17.906 Y11.719 F800.000
G1 X17.988 Y11.656 F800.000
G1 X18.081 Y11.625 F800.000
G1 X18.081 Y11.625 F800.000
G1 X18.438 Y11.669 F800.000
G1 X18.663 Y11.750 F800.000
G1 X18.762 Y11.812 F800.000
G1 X18.844 Y11.881 F800.000
G0 X18.906 Y11.969
G0 X18.994 Y12.175
G0 X19.094 Y12.688
G0 X21.475 Y27.269
G1 X21.500 Y27.425 F800.000
G1 X21.550 Y27.806 F800.000
G1 X21.544 Y27.919 F800.000
G1 X21.512 Y28.019 F800.000
G1 X21.456 Y28.106 F800.000
G1 X21.375 Y28.175 F800.000
G1 X21.175 Y28.288 F800.000
G1 X20.950 Y28.350 F800.000
G1 X20.712 Y28.381 F800.000
G1 X20.712 Y28.381 F800.000
G1 X19.312 Y28.363 F800.000
G1 X18.712 Y28.250 F800.000
G1 X18.413 Y28.150 F800.000
G1 X17.700 Y27.712 F800.000
G1 X17.456 Y27.512 F800.000
G1 X16.900 Y27.006 F800.000
G1 X16.394 Y26.450 F800.000
G1 X15.938 Y25.850 F800.000
G1 X15.613 Y25.337 F800.000
G1 X15.331 Y24.825 F800.000
G1 X15.037 Y24.238 F800.000
G1 X14.738 Y23.544 F800.000
G1 X14.488 Y22.831 F800.000
G1 X13.963 Y20.606 F800.000
G1 X13.806 Y17.806 F800.000
G1 X13.919 Y16.406 F800.000
G1 X14.637 Y13.519 F800.000
G1 X14.950 Y12.887 F800.000
G1 X15.006 Y12.806 F800.000
G1 X15.306 Y12.544 F800.000
G1 X16.062 Y12.069 F800.000
G1 X16.512 Y11.881 F800.000
G1 X16.512 Y11.881 F800.000
G1 X16.869 Y11.825 F800.000
G1 X17.113 Y11.838 F800.000
G1 X17.219 Y11.863 F800.000
G1 X17.312 Y11.906 F800.000
G0 X17.387 Y11.975
G0 X17.438 Y12.062
G0 X17.525 Y12.387
G0 X19.569 Y27.262
G1 X19.594 Y27.419 F800.000
G1 X19.637 Y27.806 F800.000
G1 X19.631 Y27.919 F800.000
G1 X19.594 Y28.019 F800.000
G1 X19.538 Y28.100 F800.000
G1 X19.456 Y28.175 F800.000
G1 X19.256 Y28.288 F800.000
G1 X19.031 Y28.350 F800.000
G1 X18.794 Y28.381 F800.000
G1 X18.794 Y28.381 F800.000
G1 X17.494 Y28.344 F800.000
G1 X16.994 Y28.250 F800.000
G1 X16.400 Y28.056 F800.000
G1 X15.844 Y27.775 F800.000
G1 X15.088 Y27.212 F800.000
G1 X14.575 Y26.681 F800.000
G1 X14.206 Y26.181 F800.000
G1 X13.869 Y25.431 F800.000
G1 X13.744 Y25.031 F800.000
G1 X13.644 Y24.431 F800.000
G1 X13.619 Y20.031 F800.000
G1 X13.619 Y20.031 F800.000
G1 X13.619 Y19.781 F800.000
G1 X13.688 Y19.544 F800.000
G1 X13.688 Y19.544 F800.000
G1 X13.688 Y19.663 F800.000
G1 X13.688 Y19.663 F800.000
G1 X13.619 Y19.431 F800.000
G1 X13.619 Y19.188 F800.000
G1 X13.619 Y19.188 F800.000
G1 X13.650 Y15.488 F800.000
G1 X13.825 Y14.688 F800.000
G1 X14.137 Y13.931 F800.000
G1 X14.137 Y13.931 F800.000
G1 X14.275 Y13.731 F800.000
G1 X14.450 Y13.562 F800.000
G1 X14.750 Y13.363 F800.000
G0 X14.856 Y13.300
G0 X16.619 Y12.231
G1 X16.719 Y12.169 F800.000
G1 X17.544 Y11.650 F800.000
G1 X17.775 Y11.562 F800.000
G1 X18.137 Y11.500 F800.000
G1 X18.137 Y11.500 F800.000
G1 X48.844 Y11.500 F800.000
G1 X49.475 Y11.525 F800.000
G1 X49.862 Y11.581 F800.000
G1 X50.194 Y11.662 F800.000
G1 X50.619 Y11.812 F800.000
G1 X50.962 Y11.963 F800.000
G1 X51.256 Y12.113 F800.000
G1 X51.456 Y12.238 F800.000
G1 X52.006 Y12.662 F800.000
G1 X52.200 Y12.838 F800.000
G1 X52.612 Y13.325 F800.000
G1 X52.794 Y13.594 F800.000
G1 X53.019 Y13.994 F800.000
G1 X53.200 Y14.412 F800.000
G1 X53.306 Y14.719 F800.000
G1 X53.450 Y15.363 F800.000
G1 X53.494 Y15.769 F800.000
G1 X53.500 Y23.956 F800.000
G1 X53.450 Y24.594 F800.000
G1 X53.350 Y25.113 F800.000
G1 X53.188 Y25.594 F800.000
G1 X53.025 Y25.975 F800.000
G1 X52.875 Y26.275 F800.000
G1 X52.638 Y26.631 F800.000
G1 X52.400 Y26.944 F800.000
G1 X52.081 Y27.269 F800.000
G1 X51.669 Y27.600 F800.000
G1 X51.312 Y27.844 F800.000
G1 X51.000 Y28.025 F800.000
G1 X50.669 Y28.169 F800.000
G1 X49.975 Y28.381 F800.000
G1 X49.600 Y28.450 F800.000
G1 X49.281 Y28.488 F800.000
G1 X48.850 Y28.500 F800.000
G1 X18.025 Y28.494 F800.000
G1 X17.363 Y28.444 F800.000
G1 X17.125 Y28.406 F800.000
G1 X16.450 Y28.219 F800.000
G1 X16.031 Y28.038 F800.000
G1 X15.675 Y27.844 F800.000
G1 X15.363 Y27.637 F800.000
G1 X14.994 Y27.344 F800.000
G1 X14.594 Y26.938 F800.000
G1 X14.275 Y26.519 F800.000
G1 X14.069 Y26.175 F800.000
G1 X13.900 Y25.825 F800.000
G1 X13.731 Y25.406 F800.000
G1 X13.600 Y24.913 F800.000
G1 X13.525 Y24.525 F800.000
G1 X13.500 Y23.988 F800.000
G1 X13.500 Y16.144 F800.000
G1 X13.525 Y15.531 F800.000
G1 X13.562 Y15.244 F800.000
G1 X13.662 Y14.806 F800.000
G1 X13.919 Y14.106 F800.000
G1 X13.994 Y13.938 F800.000
G1 X14.419 Y13.275 F800.000
G1 X14.544 Y13.113 F800.000
G1 X14.931 Y12.713 F800.000
G1 X15.350 Y12.363 F800.000
G1 X15.619 Y12.181 F800.000
G1 X16.012 Y11.963 F800.000
G1 X16.394 Y11.800 F800.000
G1 X16.969 Y11.619 F800.000
G1 X17.475 Y11.531 F800.000
G1 X17.663 Y11.512 F800.000
G1 X18.137 Y11.500 F800.000
G1 X18.137 Y11.500 F800.000
G0 Z5.000
(Helix to depth: -3.000000)
G0 Z5.000
G0 X35.590 Y19.195 Z5.000
G0 X35.590 Y19.195 Z3.000
G1 X35.590 Y19.195 Z-2.000 F200.000
G1 X35.590 Y19.195 Z-2.000 F200.000
G1 X35.707 Y19.618 Z-2.039 F200.000
G1 X35.739 Y20.056 Z-2.077 F200.000
G1 X35.685 Y20.492 Z-2.116 F200.000
G1 X35.547 Y20.909 Z-2.155 F200.000
G1 X35.331 Y21.291 Z-2.193 F200.000
G1 X35.044 Y21.623 Z-2.232 F200.000
G1 X34.697 Y21.893 Z-2.271 F200.000
G1 X34.305 Y22.090 Z-2.309 F200.000
G1 X33.882 Y22.207 Z-2.348 F200.000
G1 X33.444 Y22.239 Z-2.387 F200.000
G1 X33.008 Y22.185 Z-2.425 F200.000
G1 X32.591 Y22.047 Z-2.464 F200.000
G1 X32.209 Y21.831 Z-2.502 F200.000
G1 X31.877 Y21.544 Z-2.541 F200.000
G1 X31.607 Y21.197 Z-2.580 F200.000
G1 X31.410 Y20.805 Z-2.618 F200.000
G1 X31.293 Y20.382 Z-2.657 F200.000
G1 X31.261 Y19.944 Z-2.696 F200.000
G1 X31.315 Y19.508 Z-2.734 F200.000
G1 X31.453 Y19.091 Z-2.773 F200.000
G1 X31.669 Y18.709 Z-2.812 F200.000
G1 X31.956 Y18.377 Z-2.850 F200.000
G1 X32.303 Y18.107 Z-2.889 F200.000
G1 X32.695 Y17.910 Z-2.928 F200.000
G1 X33.118 Y17.793 Z-2.966 F200.000
G1 X33.500 Y17.760 Z-3.000 F800.000
G1 X33.937 Y17.803 Z-3.000 F800.000
G1 X34.357 Y17.931 Z-3.000 F800.000
G1 X34.744 Y18.138 Z-3.000 F800.000
G1 X35.084 Y18.416 Z-3.000 F800.000
G1 X35.362 Y18.756 Z-3.000 F800.000
G1 X35.569 Y19.143 Z-3.000 F800.000
G1 X35.697 Y19.563 Z-3.000 F800.000
G1 X35.740 Y20.000 Z-3.000 F800.000
G1 X35.697 Y20.437 Z-3.000 F800.000
G1 X35.569 Y20.857 Z-3.000 F800.000
G1 X35.362 Y21.244 Z-3.000 F800.000
G1 X35.084 Y21.584 Z-3.000 F800.000
G1 X34.744 Y21.862 Z-3.000 F800.000
G1 X34.357 Y22.069 Z-3.000 F800.000
G1 X33.937 Y22.197 Z-3.000 F800.000
G1 X33.500 Y22.240 Z-3.000 F800.000
G1 X33.063 Y22.197 Z-3.000 F800.000
G1 X32.643 Y22.069 Z-3.000 F800.000
G1 X32.256 Y21.862 Z-3.000 F800.000
G1 X31.916 Y21.584 Z-3.000 F800.000
G1 X31.638 Y21.244 Z-3.000 F800.000
G1 X31.431 Y20.857 Z-3.000 F800.000
G1 X31.303 Y20.437 Z-3.000 F800.000
G1 X31.260 Y20.000 Z-3.000 F800.000
G1 X31.303 Y19.563 Z-3.000 F800.000
G1 X31.431 Y19.143 Z-3.000 F800.000
G1 X31.638 Y18.756 Z-3.000 F800.000
G1 X31.916 Y18.416 Z-3.000 F800.000
G1 X32.256 Y18.138 Z-3.000 F800.000
G1 X32.643 Y17.931 Z-3.000 F800.000
G1 X33.063 Y17.803 Z-3.000 F800.000
G1 X33.500 Y17.760 Z-3.000 F800.000
(Adaptive - depth: -3.000000)
G1 X33.500 Y17.750 F800.000
G1 X33.569 Y17.675 F800.000
G1 X33.619 Y17.587 F800.000
G1 X33.688 Y17.512 F800.000
G1 X33.944 Y17.356 F800.000
G1 X34.219 Y17.262 F800.000
G1 X34.806 Y17.244 F800.000
G1 X35.194 Y17.325 F800.000
G1 X35.431 Y17.413 F800.000
G1 X35.663 Y17.525 F800.000
G1 X35.962 Y17.719 F800.000
G1 X36.269 Y18.012 F800.000
G1 X36.487 Y18.269 F800.000
G1 X36.688 Y18.581 F800.000
G1 X36.844 Y18.925 F800.000
G1 X36.950 Y19.269 F800.000
G1 X37.038 Y19.631 F800.000
G1 X37.075 Y20.144 F800.000
G1 X37.062 Y20.544 F800.000
G1 X36.987 Y20.962 F800.000
G1 X36.881 Y21.312 F800.000
G1 X36.719 Y21.675 F800.000
G1 X36.525 Y22.019 F800.000
G1 X36.237 Y22.406 F800.000
G1 X35.950 Y22.712 F800.000
G1 X35.625 Y22.994 F800.000
G1 X35.256 Y23.238 F800.000
G1 X34.862 Y23.413 F800.000
G1 X34.531 Y23.525 F800.000
G1 X34.138 Y23.619 F800.000
G1 X33.663 Y23.656 F800.000
G1 X33.263 Y23.650 F800.000
G1 X32.837 Y23.594 F800.000
G1 X32.413 Y23.506 F800.000
G1 X31.881 Y23.325 F800.000
G1 X31.475 Y23.094 F800.000
G1 X31.200 Y22.900 F800.000
G1 X30.931 Y22.669 F800.000
G1 X30.613 Y22.325 F800.000
G1 X30.331 Y21.938 F800.000
G1 X30.131 Y21.556 F800.000
G1 X29.988 Y21.206 F800.000
G1 X29.881 Y20.800 F800.000
G1 X29.825 Y20.394 F800.000
G1 X29.788 Y19.994 F800.000
G1 X29.825 Y19.425 F800.000
G1 X29.900 Y18.988 F800.000
G1 X30.056 Y18.550 F800.000
G1 X30.194 Y18.250 F800.000
G1 X30.413 Y17.906 F800.000
G1 X30.644 Y17.587 F800.000
G1 X30.994 Y17.194 F800.000
G1 X31.394 Y16.800 F800.000
G1 X31.906 Y16.387 F800.000
G1 X32.406 Y16.100 F800.000
G1 X32.769 Y15.919 F800.000
G1 X33.256 Y15.738 F800.000
G1 X33.731 Y15.625 F800.000
G1 X34.194 Y15.588 F800.000
G1 X34.550 Y15.588 F800.000
G1 X34.975 Y15.644 F800.000
G1 X35.375 Y15.719 F800.000
G1 X35.944 Y15.912 F800.000
G1 X36.369 Y16.106 F800.000
G1 X36.775 Y16.369 F800.000
G1 X37.069 Y16.600 F800.000
G1 X37.381 Y16.913 F800.000
G1 X37.663 Y17.231 F800.000
G1 X37.987 Y17.712 F800.000
G1 X38.212 Y18.131 F800.000
G1 X38.406 Y18.581 F800.000
G1 X38.556 Y19.075 F800.000
G1 X38.656 Y19.556 F800.000
G1 X38.706 Y20.050 F800.000
G1 X38.706 Y20.550 F800.000
G1 X38.656 Y21.044 F800.000
G1 X38.538 Y21.525 F800.000
G1 X38.406 Y21.900 F800.000
G1 X38.231 Y22.325 F800.000
G1 X37.956 Y22.844 F800.000
G1 X37.625 Y23.350 F800.000
G1 X37.256 Y23.750 F800.000
G1 X36.975 Y24.019 F800.000
G1 X36.581 Y24.319 F800.000
G1 X36.194 Y24.581 F800.000
G1 X35.619 Y24.881 F800.000
G1 X35.131 Y25.081 F800.000
G1 X34.606 Y25.212 F800.000
G1 X34.194 Y25.281 F800.000
G1 X33.706 Y25.312 F800.000
G1 X33.231 Y25.325 F800.000
G1 X32.500 Y25.250 F800.000
G1 X31.969 Y25.125 F800.000
G1 X31.550 Y25.000 F800.000
G1 X31.044 Y24.781 F800.000
G1 X30.606 Y24.531 F800.000
G1 X30.200 Y24.256 F800.000
G1 X29.812 Y23.925 F800.000
G1 X29.462 Y23.562 F800.000
G1 X29.150 Y23.169 F800.000
G1 X28.875 Y22.744 F800.000
G1 X28.644 Y22.294 F800.000
G1 X28.456 Y21.825 F800.000
G1 X28.294 Y21.350 F800.000
G1 X28.163 Y20.719 F800.000
G1 X28.094 Y20.181 F800.000
G1 X28.094 Y19.625 F800.000
G1 X28.131 Y19.169 F800.000
G1 X28.225 Y18.663 F800.000
G1 X28.369 Y18.175 F800.000
G1 X28.550 Y17.719 F800.000
G1 X28.762 Y17.262 F800.000
G1 X29.100 Y16.712 F800.000
G1 X29.419 Y16.281 F800.000
G1 X29.781 Y15.863 F800.000
G1 X30.181 Y15.450 F800.000
G1 X30.744 Y14.981 F800.000
G1 X31.238 Y14.625 F800.000
G1 X31.800 Y14.338 F800.000
G1 X32.181 Y14.169 F800.000
G1 X32.694 Y14.006 F800.000
G1 X33.188 Y13.887 F800.000
G1 X33.812 Y13.800 F800.000
G1 X34.362 Y13.769 F800.000
G1 X34.919 Y13.787 F800.000
G1 X35.487 Y13.887 F800.000
G1 X35.913 Y13.994 F800.000
G1 X36.400 Y14.169 F800.000
G1 X36.862 Y14.363 F800.000
G1 X37.462 Y14.694 F800.000
G1 X37.925 Y15.006 F800.000
G1 X38.375 Y15.356 F800.000
G1 X38.812 Y15.769 F800.000
G1 X39.169 Y16.219 F800.000
G1 X39.419 Y16.575 F800.000
G1 X39.694 Y17.025 F800.000
G1 X39.969 Y17.644 F800.000
G1 X40.150 Y18.137 F800.000
G1 X40.306 Y18.688 F800.000
G1 X40.406 Y19.262 F800.000
G1 X40.456 Y19.819 F800.000
G1 X40.456 Y20.387 F800.000
G1 X40.406 Y20.956 F800.000
G1 X40.312 Y21.512 F800.000
G1 X40.169 Y22.069 F800.000
G1 X40.006 Y22.619 F800.000
G1 X39.725 Y23.312 F800.000
G1 X39.406 Y23.875 F800.000
G1 X39.131 Y24.269 F800.000
G1 X38.819 Y24.650 F800.000
G1 X38.462 Y25.044 F800.000
G1 X37.913 Y25.525 F800.000
G1 X37.456 Y25.869 F800.000
G1 X36.950 Y26.194 F800.000
G1 X36.394 Y26.481 F800.000
G1 X35.837 Y26.719 F800.000
G1 X35.263 Y26.913 F800.000
G1 X34.663 Y27.056 F800.000
G1 X34.062 Y27.150 F800.000
G1 X33.456 Y27.169 F800.000
G1 X32.981 Y27.150 F800.000
G1 X31.887 Y26.988 F800.000
G1 X31.163 Y26.788 F800.000
G1 X30.562 Y26.581 F800.000
G1 X29.969 Y26.275 F800.000
G1 X29.581 Y26.044 F800.000
G1 X29.131 Y25.712 F800.000
G1 X28.712 Y25.369 F800.000
G1 X28.188 Y24.850 F800.000
G1 X27.794 Y24.394 F800.000
G1 X27.425 Y23.900 F800.000
G1 X27.081 Y23.350 F800.000
G1 X26.825 Y22.781 F800.000
G1 X26.650 Y22.337 F800.000
G1 X26.369 Y21.250 F800.000
G1 X26.269 Y20.506 F800.000
G1 X26.231 Y19.875 F800.000
G1 X26.262 Y19.219 F800.000
G1 X26.319 Y18.700 F800.000
G1 X26.438 Y18.119 F800.000
G1 X26.606 Y17.556 F800.000
G1 X26.812 Y17.031 F800.000
G1 X27.044 Y16.494 F800.000
G1 X27.413 Y15.838 F800.000
G1 X27.769 Y15.294 F800.000
G1 X28.175 Y14.744 F800.000
G1 X28.650 Y14.200 F800.000
G1 X29.156 Y13.744 F800.000
G1 X29.556 Y13.419 F800.000
G1 X30.075 Y13.075 F800.000
G1 X30.594 Y12.794 F800.000
G1 X32.319 Y12.100 F800.000
G1 X33.631 Y11.844 F800.000
G1 X35.506 Y11.838 F800.000
G1 X36.538 Y12.069 F800.000
G1 X37.531 Y12.431 F800.000
G1 X38.181 Y12.794 F800.000
G1 X38.806 Y13.200 F800.000
G1 X39.362 Y13.637 F800.000
G1 X39.819 Y14.037 F800.000
G1 X40.331 Y14.562 F800.000
G1 X40.769 Y15.088 F800.000
G1 X41.138 Y15.650 F800.000
G1 X41.388 Y16.094 F800.000
G1 X41.644 Y16.644 F800.000
G1 X41.862 Y17.188 F800.000
G1 X42.075 Y17.900 F800.000
G1 X42.219 Y18.538 F800.000
G1 X42.325 Y19.200 F800.000
G1 X42.381 Y19.900 F800.000
G1 X42.388 Y20.575 F800.000
G1 X42.344 Y21.256 F800.000
G1 X42.250 Y21.931 F800.000
G1 X42.075 Y22.594 F800.000
G1 X41.913 Y23.094 F800.000
G1 X41.669 Y23.669 F800.000
G1 X41.413 Y24.212 F800.000
G1 X41.031 Y24.856 F800.000
G1 X40.650 Y25.413 F800.000
G1 X40.225 Y25.956 F800.000
G1 X39.731 Y26.494 F800.000
G1 X39.225 Y26.975 F800.000
G1 X38.650 Y27.400 F800.000
G1 X38.231 Y27.675 F800.000
G1 X37.219 Y28.169 F800.000
G1 X36.419 Y28.369 F800.000
G1 X30.919 Y28.344 F800.000
G1 X30.419 Y28.275 F800.000
G1 X29.819 Y28.119 F800.000
G1 X28.613 Y27.538 F800.000
G1 X27.962 Y27.150 F800.000
G1 X27.375 Y26.675 F800.000
G1 X26.900 Y26.231 F800.000
G1 X26.512 Y25.812 F800.000
G1 X26.131 Y25.356 F800.000
G1 X25.706 Y24.731 F800.000
G1 X25.381 Y24.181 F800.000
G1 X25.075 Y23.581 F800.000
G1 X24.812 Y22.938 F800.000
G1 X24.606 Y22.306 F800.000
G1 X24.444 Y21.650 F800.000
G1 X24.331 Y20.975 F800.000
G1 X24.269 Y20.300 F800.000
G1 X24.256 Y19.625 F800.000
G1 X24.294 Y18.950 F800.000
G1 X24.375 Y18.275 F800.000
G1 X24.506 Y17.613 F800.000
G1 X24.688 Y16.962 F800.000
G1 X24.919 Y16.325 F800.000
G1 X25.194 Y15.706 F800.000
G1 X25.512 Y15.113 F800.000
G1 X25.850 Y14.525 F800.000
G1 X26.281 Y13.906 F800.000
G1 X26.744 Y13.319 F800.000
G1 X27.238 Y12.756 F800.000
G1 X28.250 Y11.863 F800.000
G1 X28.506 Y11.713 F800.000
G1 X28.681 Y11.637 F800.000
G1 X28.775 Y11.619 F800.000
G1 X31.494 Y11.619 F800.000
G1 X31.494 Y11.619 F800.000
G1 X31.525 Y11.631 F800.000
G1 X31.519 Y11.637 F800.000
G1 X31.581 Y11.619 F800.000
G1 X31.581 Y11.619 F800.000
G1 X32.987 Y11.619 F800.000
G1 X32.987 Y11.619 F800.000
G1 X33.206 Y11.650 F800.000
G1 X33.275 Y11.669 F800.000
G1 X33.312 Y11.688 F800.000
G1 X33.744 Y11.619 F800.000
G1 X33.744 Y11.619 F800.000
G1 X38.712 Y11.637 F800.000
G1 X39.462 Y11.756 F800.000
G1 X39.744 Y11.838 F800.000
G1 X40.006 Y11.956 F800.000
G1 X40.737 Y12.419 F800.000
G1 X41.306 Y12.900 F800.000
G1 X41.825 Y13.431 F800.000
G1 X42.244 Y13.925 F800.000
G1 X42.606 Y14.412 F800.000
G1 X42.975 Y15.019 F800.000
G1 X43.275 Y15.600 F800.000
G1 X43.781 Y16.825 F800.000
G1 X43.994 Y17.538 F800.000
G1 X44.169 Y18.262 F800.000
G1 X44.306 Y18.994 F800.000
G1 X44.388 Y19.738 F800.000
G1 X44.394 Y20.481 F800.000
G1 X44.369 Y21.062 F800.000
G1 X44.281 Y21.781 F800.000
G1 X44.144 Y22.456 F800.000
G1 X43.969 Y23.094 F800.000
G1 X43.737 Y23.744 F800.000
G1 X43.494 Y24.375 F800.000
G1 X43.169 Y25.050 F800.000
G1 X42.800 Y25.700 F800.000
G1 X42.400 Y26.331 F800.000
G1 X41.956 Y26.938 F800.000
G1 X41.481 Y27.512 F800.000
G1 X40.969 Y28.062 F800.000
G1 X40.800 Y28.175 F800.000
G1 X40.431 Y28.350 F800.000
G1 X40.337 Y28.381 F800.000
G1 X37.038 Y28.381 F800.000
G1 X37.038 Y28.381 F800.000
G1 X36.788 Y28.350 F800.000
G1 X36.550 Y28.288 F800.000
G1 X36.337 Y28.175 F800.000
G1 X36.263 Y28.100 F800.000
G0 X36.206 Y28.012
G0 X36.181 Y27.913
G0 X36.194 Y27.575
G0 X38.462 Y12.694
G1 X38.487 Y12.519 F800.000
G1 X38.544 Y12.225 F800.000
G1 X38.587 Y12.094 F800.000
G1 X38.644 Y11.981 F800.000
G1 X38.719 Y11.887 F800.000
G1 X38.812 Y11.812 F800.000
G1 X39.025 Y11.700 F800.000
G1 X39.256 Y11.644 F800.000
G1 X39.506 Y11.619 F800.000
G1 X39.506 Y11.619 F800.000
G1 X41.475 Y11.644 F800.000
G1 X42.131 Y11.775 F800.000
G1 X42.487 Y11.931 F800.000
G1 X43.175 Y12.438 F800.000
G1 X43.700 Y12.963 F800.000
G1 X44.175 Y13.537 F800.000
G1 X44.494 Y13.981 F800.000
G1 X45.112 Y15.031 F800.000
G1 X45.419 Y15.713 F800.000
G1 X45.675 Y16.381 F800.000
G1 X45.913 Y17.087 F800.000
G1 X46.094 Y17.812 F800.000
G1 X46.231 Y18.544 F800.000
G1 X46.325 Y19.288 F800.000
G1 X46.369 Y20.031 F800.000
G1 X46.369 Y20.775 F800.000
G1 X46.319 Y21.519 F800.000
G1 X46.219 Y22.262 F800.000
G1 X46.075 Y22.994 F800.000
G1 X45.888 Y23.719 F800.000
G1 X45.650 Y24.431 F800.000
G1 X45.369 Y25.125 F800.000
G1 X45.044 Y25.800 F800.000
G1 X44.306 Y27.106 F800.000
G1 X43.819 Y27.800 F800.000
G1 X43.475 Y28.169 F800.000
G1 X43.125 Y28.369 F800.000
G1 X41.525 Y28.381 F800.000
G1 X41.525 Y28.381 F800.000
G1 X41.275 Y28.350 F800.000
G1 X41.038 Y28.288 F800.000
G1 X40.825 Y28.175 F800.000
G1 X40.744 Y28.100 F800.000
G0 X40.688 Y28.012
G0 X40.650 Y27.913
G0 X40.619 Y27.569
G0 X40.962 Y12.700
G1 X40.969 Y12.525 F800.000
G1 X40.981 Y12.225 F800.000
G1 X41.013 Y12.094 F800.000
G1 X41.056 Y11.981 F800.000
G1 X41.125 Y11.887 F800.000
G1 X41.212 Y11.812 F800.000
G1 X41.425 Y11.700 F800.000
G1 X41.656 Y11.644 F800.000
G1 X41.906 Y11.619 F800.000
G1 X41.906 Y11.619 F800.000
G1 X43.688 Y11.644 F800.000
G1 X44.344 Y11.762 F800.000
G1 X44.694 Y11.912 F800.000
G1 X45.375 Y12.450 F800.000
G1 X45.888 Y12.994 F800.000
G1 X46.344 Y13.588 F800.000
G1 X46.688 Y14.106 F800.000
G1 X47.006 Y14.656 F800.000
G1 X47.312 Y15.306 F800.000
G1 X47.575 Y15.906 F800.000
G1 X47.812 Y16.613 F800.000
G1 X48.006 Y17.331 F800.000
G1 X48.163 Y18.062 F800.000
G1 X48.294 Y18.800 F800.000
G1 X48.369 Y19.544 F800.000
G1 X48.406 Y20.288 F800.000
G1 X48.406 Y21.031 F800.000
G1 X48.362 Y21.775 F800.000
G1 X48.281 Y22.519 F800.000
G1 X48.163 Y23.256 F800.000
G1 X48.000 Y23.988 F800.000
G1 X47.800 Y24.706 F800.000
G1 X47.562 Y25.413 F800.000
G1 X47.288 Y26.106 F800.000
G1 X46.944 Y26.769 F800.000
G1 X46.619 Y27.337 F800.000
G1 X46.206 Y27.962 F800.000
G1 X46.006 Y28.181 F800.000
G1 X45.750 Y28.350 F800.000
G1 X45.656 Y28.381 F800.000
G1 X44.056 Y28.381 F800.000
G1 X44.056 Y28.381 F800.000
G1 X43.806 Y28.350 F800.000
G1 X43.569 Y28.288 F800.000
G1 X43.356 Y28.175 F800.000
G1 X43.275 Y28.100 F800.000
G0 X43.212 Y28.012
G0 X43.181 Y27.913
G0 X43.144 Y27.569
G0 X43.369 Y12.700
G1 X43.375 Y12.525 F800.000
G1 X43.388 Y12.225 F800.000
G1 X43.413 Y12.094 F800.000
G1 X43.462 Y11.981 F800.000
G1 X43.531 Y11.887 F800.000
G1 X43.612 Y11.812 F800.000
G1 X43.825 Y11.700 F800.000
G1 X44.056 Y11.644 F800.000
G1 X44.306 Y11.619 F800.000
G1 X44.306 Y11.619 F800.000
G1 X45.806 Y11.644 F800.000
G1 X46.462 Y11.775 F800.000
G1 X46.731 Y11.887 F800.000
G1 X47.481 Y12.475 F800.000
G1 X47.994 Y13.019 F800.000
G1 X48.444 Y13.613 F800.000
G1 X48.794 Y14.162 F800.000
G1 X49.087 Y14.669 F800.000
G1 X49.394 Y15.338 F800.000
G1 X49.644 Y15.938 F800.000
G1 X49.875 Y16.644 F800.000
G1 X50.056 Y17.369 F800.000
G1 X50.331 Y18.837 F800.000
G1 X50.400 Y19.581 F800.000
G1 X50.438 Y20.325 F800.000
G1 X50.444 Y21.069 F800.000
G1 X50.400 Y21.812 F800.000
G1 X50.325 Y22.556 F800.000
G1 X50.094 Y24.031 F800.000
G1 X49.925 Y24.762 F800.000
G1 X49.731 Y25.481 F800.000
G1 X49.475 Y26.188 F800.000
G1 X49.200 Y26.881 F800.000
G1 X48.856 Y27.544 F800.000
G1 X48.519 Y28.125 F800.000
G1 X48.194 Y28.350 F800.000
G1 X48.094 Y28.381 F800.000
G1 X46.794 Y28.381 F800.000
G1 X46.794 Y28.381 F800.000
G1 X46.544 Y28.350 F800.000
G1 X46.306 Y28.288 F800.000
G1 X46.094 Y28.175 F800.000
G1 X46.013 Y28.100 F800.000
G0 X45.950 Y28.012
G0 X45.888 Y27.800
G0 X45.856 Y27.281
G0 X45.550 Y12.700
G1 X45.550 Y12.525 F800.000
G1 X45.556 Y12.225 F800.000
G1 X45.575 Y12.094 F800.000
G1 X45.619 Y11.981 F800.000
G1 X45.688 Y11.887 F800.000
G1 X45.775 Y11.812 F800.000
G1 X45.981 Y11.700 F800.000
G1 X46.212 Y11.644 F800.000
G1 X46.462 Y11.619 F800.000
G1 X46.462 Y11.619 F800.000
G1 X47.869 Y11.637 F800.000
G1 X48.525 Y11.762 F800.000
G1 X48.881 Y11.912 F800.000
G1 X49.550 Y12.450 F800.000
G1 X50.119 Y13.075 F800.000
G1 X50.556 Y13.675 F800.000
G1 X50.894 Y14.206 F800.000
G1 X51.206 Y14.762 F800.000
G1 X51.513 Y15.444 F800.000
G1 X51.744 Y16.075 F800.000
G1 X52.125 Y17.406 F800.000
G1 X52.263 Y18.137 F800.000
G1 X52.362 Y18.875 F800.000
G1 X52.494 Y20.363 F800.000
G1 X52.500 Y21.106 F800.000
G1 X52.481 Y21.850 F800.000
G1 X52.444 Y22.594 F800.000
G1 X52.369 Y23.337 F800.000
G1 X52.269 Y24.075 F800.000
G1 X52.106 Y24.806 F800.000
G1 X51.925 Y25.531 F800.000
G1 X51.700 Y26.244 F800.000
G1 X51.438 Y26.944 F800.000
G1 X51.106 Y27.556 F800.000
G1 X50.856 Y27.863 F800.000
G1 X50.706 Y28.000 F800.000
G1 X50.525 Y28.094 F800.000
G1 X49.938 Y28.269 F800.000
G1 X48.938 Y28.381 F800.000
G1 X48.737 Y28.381 F800.000
G1 X48.737 Y28.381 F800.000
G1 X48.487 Y28.350 F800.000
G1 X48.250 Y28.288 F800.000
G1 X48.038 Y28.175 F800.000
G1 X47.956 Y28.100 F800.000
G0 X47.894 Y28.012
G0 X47.831 Y27.800
G0 X47.800 Y27.281
G0 X47.475 Y12.700
G1 X47.475 Y12.525 F800.000
G1 X47.475 Y12.225 F800.000
G1 X47.494 Y12.094 F800.000
G1 X47.538 Y11.981 F800.000
G1 X47.606 Y11.887 F800.000
G1 X47.694 Y11.812 F800.000
G1 X47.900 Y11.700 F800.000
G1 X48.131 Y11.644 F800.000
G1 X48.381 Y11.619 F800.000
G1 X48.381 Y11.619 F800.000
G1 X49.413 Y11.637 F800.000
G1 X50.163 Y11.781 F800.000
G1 X50.706 Y11.981 F800.000
G1 X51.450 Y12.419 F800.000
G1 X52.156 Y13.069 F800.000
G1 X52.919 Y14.181 F800.000
G1 X53.225 Y14.881 F800.000
G1 X53.350 Y15.537 F800.000
G1 X53.362 Y24.350 F800.000
G1 X53.294 Y24.819 F800.000
G1 X53.106 Y25.475 F800.000
G1 X52.869 Y26.019 F800.000
G1 X52.506 Y26.606 F800.000
G1 X51.975 Y27.206 F800.000
G1 X51.263 Y27.738 F800.000
G1 X50.906 Y27.931 F800.000
G1 X50.906 Y27.931 F800.000
G1 X50.544 Y28.012 F800.000
G1 X50.300 Y28.019 F800.000
G1 X50.056 Y27.981 F800.000
G0 X49.938 Y27.950
G0 X47.781 Y27.200
G0 X46.581 Y27.056
G0 X44.631 Y27.131
G0 X34.869 Y27.113
G0 X33.544 Y27.181
G0 X31.881 Y27.781
G1 X31.762 Y27.825 F800.000
G1 X31.425 Y27.969 F800.000
G1 X30.894 Y28.244 F800.000
G1 X30.669 Y28.325 F800.000
G1 X30.312 Y28.381 F800.000
G1 X30.312 Y28.381 F800.000
G1 X28.012 Y28.356 F800.000
G1 X27.312 Y28.231 F800.000
G1 X27.012 Y28.131 F800.000
G1 X26.469 Y27.831 F800.000
G1 X26.031 Y27.538 F800.000
G1 X25.431 Y27.081 F800.000
G1 X24.887 Y26.562 F800.000
G1 X24.450 Y26.075 F800.000
G1 X24.094 Y25.644 F800.000
G1 X23.675 Y25.019 F800.000
G1 X23.356 Y24.456 F800.000
G1 X23.075 Y23.875 F800.000
G1 X22.831 Y23.244 F800.000
G1 X22.644 Y22.613 F800.000
G1 X22.500 Y21.969 F800.000
G1 X22.375 Y21.312 F800.000
G1 X22.300 Y20.562 F800.000
G1 X22.269 Y19.819 F800.000
G1 X22.275 Y19.069 F800.000
G1 X22.337 Y18.319 F800.000
G1 X22.444 Y17.575 F800.000
G1 X22.594 Y16.837 F800.000
G1 X22.794 Y16.113 F800.000
G1 X23.038 Y15.400 F800.000
G1 X23.325 Y14.706 F800.000
G1 X23.656 Y14.031 F800.000
G1 X24.056 Y13.394 F800.000
G1 X25.169 Y11.869 F800.000
G1 X25.494 Y11.644 F800.000
G1 X25.587 Y11.619 F800.000
G1 X25.869 Y11.619 F800.000
G1 X25.869 Y11.619 F800.000
G1 X26.225 Y11.662 F800.000
G1 X26.450 Y11.744 F800.000
G1 X26.544 Y11.806 F800.000
G1 X26.631 Y11.875 F800.000
G0 X26.694 Y11.963
G0 X26.762 Y12.175
G0 X26.831 Y12.688
G0 X28.244 Y27.262
G1 X28.256 Y27.419 F800.000
G1 X28.288 Y27.806 F800.000
G1 X28.275 Y27.919 F800.000
G1 X28.238 Y28.019 F800.000
G1 X28.175 Y28.100 F800.000
G1 X28.094 Y28.175 F800.000
G1 X27.894 Y28.288 F800.000
G1 X27.669 Y28.350 F800.000
G1 X27.431 Y28.381 F800.000
G1 X27.431 Y28.381 F800.000
G1 X25.631 Y28.356 F800.000
G1 X24.931 Y28.225 F800.000
G1 X24.544 Y28.081 F800.000
G1 X23.762 Y27.569 F800.000
G1 X23.169 Y27.100 F800.000
G1 X22.650 Y26.556 F800.000
G1 X22.281 Y26.094 F800.000
G1 X21.969 Y25.675 F800.000
G1 X21.600 Y25.044 F800.000
G1 X21.075 Y23.950 F800.000
G1 X20.831 Y23.238 F800.000
G1 X20.644 Y22.569 F800.000
G1 X20.481 Y21.850 F800.000
G1 X20.344 Y21.106 F800.000
G1 X20.262 Y20.356 F800.000
G1 X20.219 Y19.606 F800.000
G1 X20.212 Y18.856 F800.000
G1 X20.256 Y18.106 F800.000
G1 X20.337 Y17.356 F800.000
G1 X20.456 Y16.613 F800.000
G1 X20.650 Y15.887 F800.000
G1 X20.844 Y15.269 F800.000
G1 X21.119 Y14.569 F800.000
G1 X21.413 Y13.875 F800.000
G1 X21.756 Y13.206 F800.000
G1 X22.131 Y12.556 F800.000
G1 X22.594 Y11.838 F800.000
G1 X22.819 Y11.650 F800.000
G1 X22.913 Y11.619 F800.000
G1 X22.913 Y11.619 F800.000
G1 X23.269 Y11.662 F800.000
G1 X23.494 Y11.744 F800.000
G1 X23.587 Y11.806 F800.000
G1 X23.675 Y11.875 F800.000
G0 X23.738 Y11.963
G0 X23.819 Y12.175
G0 X23.900 Y12.688
G0 X25.812 Y27.262
G1 X25.837 Y27.419 F800.000
G1 X25.881 Y27.806 F800.000
G1 X25.869 Y27.919 F800.000
G1 X25.831 Y28.019 F800.000
G1 X25.775 Y28.100 F800.000
G1 X25.694 Y28.175 F800.000
G1 X25.494 Y28.288 F800.000
G1 X25.269 Y28.350 F800.000
G1 X25.031 Y28.381 F800.000
G1 X25.031 Y28.381 F800.000
G1 X23.431 Y28.356 F800.000
G1 X22.731 Y28.225 F800.000
G1 X22.344 Y28.081 F800.000
G1 X21.744 Y27.675 F800.000
G1 X21.019 Y27.031 F800.000
G1 X20.506 Y26.475 F800.000
G1 X20.056 Y25.869 F800.000
G1 X19.750 Y25.375 F800.000
G1 X19.219 Y24.331 F800.000
G1 X18.925 Y23.637 F800.000
G1 X18.681 Y22.925 F800.000
G1 X18.469 Y22.200 F800.000
G1 X18.300 Y21.469 F800.000
G1 X18.175 Y20.725 F800.000
G1 X18.119 Y19.975 F800.000
G1 X18.100 Y19.331 F800.000
G1 X18.169 Y17.831 F800.000
G1 X18.269 Y17.087 F800.000
G1 X18.406 Y16.350 F800.000
G1 X18.569 Y15.619 F800.000
G1 X18.781 Y14.894 F800.000
G1 X19.025 Y14.181 F800.000
G1 X19.306 Y13.481 F800.000
G1 X19.625 Y12.800 F800.000
G1 X20.125 Y11.875 F800.000
G1 X20.188 Y11.794 F800.000
G1 X20.344 Y11.669 F800.000
G1 X20.431 Y11.619 F800.000
G1 X20.431 Y11.619 F800.000
G1 X20.788 Y11.662 F800.000
G1 X21.012 Y11.744 F800.000
G1 X21.106 Y11.806 F800.000
G1 X21.194 Y11.875 F800.000
G0 X21.256 Y11.963
G0 X21.344 Y12.175
G0 X21.438 Y12.688
G0 X23.644 Y27.269
G1 X23.669 Y27.425 F800.000
G1 X23.719 Y27.806 F800.000
G1 X23.706 Y27.919 F800.000
G1 X23.675 Y28.019 F800.000
G1 X23.619 Y28.106 F800.000
G1 X23.538 Y28.175 F800.000
G1 X23.337 Y28.288 F800.000
G1 X23.113 Y28.350 F800.000
G1 X22.875 Y28.381 F800.000
G1 X22.875 Y28.381 F800.000
G1 X21.375 Y28.363 F800.000
G1 X20.675 Y28.225 F800.000
G1 X20.288 Y28.069 F800.000
G1 X19.525 Y27.538 F800.000
G1 X18.962 Y27.031 F800.000
G1 X18.456 Y26.469 F800.000
G1 X18.075 Y25.969 F800.000
G1 X17.750 Y25.494 F800.000
G1 X17.406 Y24.869 F800.000
G1 X16.887 Y23.712 F800.000
G1 X16.625 Y23.006 F800.000
G1 X16.419 Y22.281 F800.000
G1 X16.238 Y21.550 F800.000
G1 X16.100 Y20.806 F800.000
G1 X16.006 Y20.056 F800.000
G1 X15.981 Y19.306 F800.000
G1 X15.988 Y18.650 F800.000
G1 X16.106 Y17.150 F800.000
G1 X16.231 Y16.406 F800.000
G1 X16.387 Y15.669 F800.000
G1 X16.569 Y14.938 F800.000
G1 X17.025 Y13.500 F800.000
G1 X17.294 Y12.800 F800.000
G1 X17.762 Y11.863 F800.000
G1 X17.906 Y11.719 F800.000
G1 X17.988 Y11.656 F800.000
G1 X18.081 Y11.625 F800.000
G1 X18.081 Y11.625 F800.000
G1 X18.438 Y11.669 F800.000
G1 X18.663 Y11.750 F800.000
G1 X18.762 Y11.812 F800.000
G1 X18.844 Y11.881 F800.000
G0 X18.906 Y11.969
G0 X18.994 Y12.175
G0 X19.094 Y12.688
G0 X21.475 Y27.269
G1 X21.500 Y27.425 F800.000
G1 X21.550 Y27.806 F800.000
G1 X21.544 Y27.919 F800.000
G1 X21.512 Y28.019 F800.000
G1 X21.456 Y28.106 F800.000
G1 X21.375 Y28.175 F800.000
G1 X21.175 Y28.288 F800.000
G1 X20.950 Y28.350 F800.000
G1 X20.712 Y28.381 F800.000
G1 X20.712 Y28.381 F800.000
G1 X19.312 Y28.363 F800.000
G1 X18.712 Y28.250 F800.000
G1 X18.413 Y28.150 F800.000
G1 X17.700 Y27.712 F800.000
G1 X17.456 Y27.512 F800.000
G1 X16.900 Y27.006 F800.000
G1 X16.394 Y26.450 F800.000
G1 X15.938 Y25.850 F800.000
G1 X15.613 Y25.337 F800.000
G1 X15.331 Y24.825 F800.000
G1 X15.037 Y24.238 F800.000
G1 X14.738 Y23.544 F800.000
G1 X14.488 Y22.831 F800.000
G1 X13.963 Y20.606 F800.000
G1 X13.806 Y17.806 F800.000
G1 X13.919 Y16.406 F800.000
G1 X14.637 Y13.519 F800.000
G1 X14.950 Y12.887 F800.000
G1 X15.006 Y12.806 F800.000
G1 X15.306 Y12.544 F800.000
G1 X16.062 Y12.069 F800.000
G1 X16.512 Y11.881 F800.000
G1 X16.512 Y11.881 F800.000
G1 X16.869 Y11.825 F800.000
G1 X17.113 Y11.838 F800.000
G1 X17.219 Y11.863 F800.000
G1 X17.312 Y11.906 F800.000
G0 X17.387 Y11.975
G0 X17.438 Y12.062
G0 X17.525 Y12.387
G0 X19.569 Y27.262
G1 X19.594 Y27.419 F800.000
G1 X19.637 Y27.806 F800.000
G1 X19.631 Y27.919 F800.000
G1 X19.594 Y28.019 F800.000
G1 X19.538 Y28.100 F800.000
G1 X19.456 Y28.175 F800.000
G1 X19.256 Y28.288 F800.000
G1 X19.031 Y28.350 F800.000
G1 X18.794 Y28.381 F800.000
G1 X18.794 Y28.381 F800.000
G1 X17.494 Y28.344 F800.000
G1 X16.994 Y28.250 F800.000
G1 X16.400 Y28.056 F800.000
G1 X15.844 Y27.775 F800.000
G1 X15.088 Y27.212 F800.000
G1 X14.575 Y26.681 F800.000
G1 X14.206 Y26.181 F800.000
G1 X13.869 Y25.431 F800.000
G1 X13.744 Y25.031 F800.000
G1 X13.644 Y24.431 F800.000
G1 X13.619 Y20.031 F800.000
G1 X13.619 Y20.031 F800.000
G1 X13.619 Y19.781 F800.000
G1 X13.688 Y19.544 F800.000
G1 X13.688 Y19.544 F800.000
G1 X13.688 Y19.663 F800.000
G1 X13.688 Y19.663 F800.000
G1 X13.619 Y19.431 F800.000
G1 X13.619 Y19.188 F800.000
G1 X13.619 Y19.188 F800.000
G1 X13.650 Y15.488 F800.000
G1 X13.825 Y14.688 F800.000
G1 X14.137 Y13.931 F800.000
G1 X14.137 Y13.931 F800.000
G1 X14.275 Y13.731 F800.000
G1 X14.450 Y13.562 F800.000
G1 X14.750 Y13.363 F800.000
G0 X14.856 Y13.300
G0 X16.619 Y12.231
G1 X16.719 Y12.169 F800.000
G1 X17.544 Y11.650 F800.000
G1 X17.775 Y11.562 F800.000
G1 X18.137 Y11.500 F800.000
G1 X18.137 Y11.500 F800.000
G1 X48.844 Y11.500 F800.000
G1 X49.475 Y11.525 F800.000
G1 X49.862 Y11.581 F800.000
G1 X50.194 Y11.662 F800.000
G1 X50.619 Y11.812 F800.000
G1 X50.962 Y11.963 F800.000
G1 X51.256 Y12.113 F800.000
G1 X51.456 Y12.238 F800.000
G1 X52.006 Y12.662 F800.000
G1 X52.200 Y12.838 F800.000
G1 X52.612 Y13.325 F800.000
G1 X52.794 Y13.594 F800.000
G1 X53.019 Y13.994 F800.000
G1 X53.200 Y14.412 F800.000
G1 X53.306 Y14.719 F800.000
G1 X53.450 Y15.363 F800.000
G1 X53.494 Y15.769 F800.000
G1 X53.500 Y23.956 F800.000
G1 X53.450 Y24.594 F800.000
G1 X53.350 Y25.113 F800.000
G1 X53.188 Y25.594 F800.000
G1 X53.025 Y25.975 F800.000
G1 X52.875 Y26.275 F800.000
G1 X52.638 Y26.631 F800.000
G1 X52.400 Y26.944 F800.000
G1 X52.081 Y27.269 F800.000
G1 X51.669 Y27.600 F800.000
G1 X51.312 Y27.844 F800.000
G1 X51.000 Y28.025 F800.000
G1 X50.669 Y28.169 F800.000
G1 X49.975 Y28.381 F800.000
G1 X49.600 Y28.450 F800.000
G1 X49.281 Y28.488 F800.000
G1 X48.850 Y28.500 F800.000
G1 X18.025 Y28.494 F800.000
G1 X17.363 Y28.444 F800.000
G1 X17.125 Y28.406 F800.000
G1 X16.450 Y28.219 F800.000
G1 X16.031 Y28.038 F800.000
G1 X15.675 Y27.844 F800.000
G1 X15.363 Y27.637 F800.000
G1 X14.994 Y27.344 F800.000
G1 X14.594 Y26.938 F800.000
G1 X14.275 Y26.519 F800.000
G1 X14.069 Y26.175 F800.000
G1 X13.900 Y25.825 F800.000
G1 X13.731 Y25.406 F800.000
G1 X13.600 Y24.913 F800.000
G1 X13.525 Y24.525 F800.000
G1 X13.500 Y23.988 F800.000
G1 X13.500 Y16.144 F800.000
G1 X13.525 Y15.531 F800.000
G1 X13.562 Y15.244 F800.000
G1 X13.662 Y14.806 F800.000
G1 X13.919 Y14.106 F800.000
G1 X13.994 Y13.938 F800.000
G1 X14.419 Y13.275 F800.000
G1 X14.544 Y13.113 F800.000
G1 X14.931 Y12.713 F800.000
G1 X15.350 Y12.363 F800.000
G1 X15.619 Y12.181 F800.000
G1 X16.012 Y11.963 F800.000
G1 X16.394 Y11.800 F800.000
G1 X16.969 Y11.619 F800.000
G1 X17.475 Y11.531 F800.000
G1 X17.663 Y11.512 F800.000
G1 X18.137 Y11.500 F800.000
G1 X18.137 Y11.500 F800.000
G0 Z5.000
(Helix to depth: -4.000000)
G0 Z5.000
G0 X35.590 Y19.195 Z5.000
G0 X35.590 Y19.195 Z3.000
G1 X35.590 Y19.195 Z-3.000 F200.000
G1 X35.590 Y19.195 Z-3.000 F200.000
G1 X35.707 Y19.618 Z-3.039 F200.000
G1 X35.739 Y20.056 Z-3.077 F200.000
G1 X35.685 Y20.492 Z-3.116 F200.000
G1 X35.547 Y20.909 Z-3.155 F200.000
G1 X35.331 Y21.291 Z-3.193 F200.000
G1 X35.044 Y21.623 Z-3.232 F200.000
G1 X34.697 Y21.893 Z-3.271 F200.000
G1 X34.305 Y22.090 Z-3.309 F200.000
G1 X33.882 Y22.207 Z-3.348 F200.000
G1 X33.444 Y22.239 Z-3.387 F200.000
G1 X33.008 Y22.185 Z-3.425 F200.000
G1 X32.591 Y22.047 Z-3.464 F200.000
G1 X32.209 Y21.831 Z-3.502 F200.000
G1 X31.877 Y21.544 Z-3.541 F200.000
G1 X31.607 Y21.197 Z-3.580 F200.000
G1 X31.410 Y20.805 Z-3.618 F200.000
G1 X31.293 Y20.382 Z-3.657 F200.000
G1 X31.261 Y19.944 Z-3.696 F200.000
G1 X31.315 Y19.508 Z-3.734 F200.000
G1 X31.453 Y19.091 Z-3.773 F200.000
G1 X31.669 Y18.709 Z-3.812 F200.000
G1 X31.956 Y18.377 Z-3.850 F200.000
G1 X32.303 Y18.107 Z-3.889 F200.000
G1 X32.695 Y17.910 Z-3.928 F200.000
G1 X33.118 Y17.793 Z-3.966 F200.000
G1 X33.500 Y17.760 Z-4.000 F800.000
G1 X33.937 Y17.803 Z-4.000 F800.000
G1 X34.357 Y17.931 Z-4.000 F800.000
G1 X34.744 Y18.138 Z-4.000 F800.000
G1 X35.084 Y18.416 Z-4.000 F800.000
G1 X35.362 Y18.756 Z-4.000 F800.000
G1 X35.569 Y19.143 Z-4.000 F800.000
G1 X35.697 Y19.563 Z-4.000 F800.000
G1 X35.740 Y20.000 Z-4.000 F800.000
G1 X35.697 Y20.437 Z-4.000 F800.000
G1 X35.569 Y20.857 Z-4.000 F800.000
G1 X35.362 Y21.244 Z-4.000 F800.000
G1 X35.084 Y21.584 Z-4.000 F800.000
G1 X34.744 Y21.862 Z-4.000 F800.000
G1 X34.357 Y22.069 Z-4.000 F800.000
G1 X33.937 Y22.197 Z-4.000 F800.000
G1 X33.500 Y22.240 Z-4.000 F800.000
G1 X33.063 Y22.197 Z-4.000 F800.000
G1 X32.643 Y22.069 Z-4.000 F800.000
G1 X32.256 Y21.862 Z-4.000 F800.000
G1 X31.916 Y21.584 Z-4.000 F800.000
G1 X31.638 Y21.244 Z-4.000 F800.000
G1 X31.431 Y20.857 Z-4.000 F800.000
G1 X31.303 Y20.437 Z-4.000 F800.000
G1 X31.260 Y20.000 Z-4.000 F800.000
G1 X31.303 Y19.563 Z-4.000 F800.000
G1 X31.431 Y19.143 Z-4.000 F800.000
G1 X31.638 Y18.756 Z-4.000 F800.000
G1 X31.916 Y18.416 Z-4.000 F800.000
G1 X32.256 Y18.138 Z-4.000 F800.000
G1 X32.643 Y17.931 Z-4.000 F800.000
G1 X33.063 Y17.803 Z-4.000 F800.000
G1 X33.500 Y17.760 Z-4.000 F800.000
(Adaptive - depth: -4.000000)
G1 X33.500 Y17.750 F800.000
G1 X33.569 Y17.675 F800.000
G1 X33.619 Y17.587 F800.000
G1 X33.688 Y17.512 F800.000
G1 X33.944 Y17.356 F800.000
G1 X34.219 Y17.262 F800.000
G1 X34.806 Y17.244 F800.000
G1 X35.194 Y17.325 F800.000
G1 X35.431 Y17.413 F800.000
G1 X35.663 Y17.525 F800.000
G1 X35.962 Y17.719 F800.000
G1 X36.269 Y18.012 F800.000
G1 X36.487 Y18.269 F800.000
G1 X36.688 Y18.581 F800.000
G1 X36.844 Y18.925 F800.000
G1 X36.950 Y19.269 F800.000
G1 X37.038 Y19.631 F800.000
G1 X37.075 Y20.144 F800.000
G1 X37.062 Y20.544 F800.000
G1 X36.987 Y20.962 F800.000
G1 X36.881 Y21.312 F800.000
G1 X36.719 Y21.675 F800.000
G1 X36.525 Y22.019 F800.000
G1 X36.237 Y22.406 F800.000
G1 X35.950 Y22.712 F800.000
G1 X35.625 Y22.994 F800.000
G1 X35.256 Y23.238 F800.000
G1 X34.862 Y23.413 F800.000
G1 X34.531 Y23.525 F800.000
G1 X34.138 Y23.619 F800.000
G1 X33.663 Y23.656 F800.000
G1 X33.263 Y23.650 F800.000
G1 X32.837 Y23.594 F800.000
G1 X32.413 Y23.506 F800.000
G1 X31.881 Y23.325 F800.000
G1 X31.475 Y23.094 F800.000
G1 X31.200 Y22.900 F800.000
G1 X30.931 Y22.669 F800.000
G1 X30.613 Y22.325 F800.000
G1 X30.331 Y21.938 F800.000
G1 X30.131 Y21.556 F800.000
G1 X29.988 Y21.206 F800.000
G1 X29.881 Y20.800 F800.000
G1 X29.825 Y20.394 F800.000
G1 X29.788 Y19.994 F800.000
G1 X29.825 Y19.425 F800.000
G1 X29.900 Y18.988 F800.000
G1 X30.056 Y18.550 F800.000
G1 X30.194 Y18.250 F800.000
G1 X30.413 Y17.906 F800.000
G1 X30.644 Y17.587 F800.000
G1 X30.994 Y17.194 F800.000
G1 X31.394 Y16.800 F800.000
G1 X31.906 Y16.387 F800.000
G1 X32.406 Y16.100 F800.000
G1 X32.769 Y15.919 F800.000
G1 X33.256 Y15.738 F800.000
G1 X33.731 Y15.625 F800.000
G1 X34.194 Y15.588 F800.000
G1 X34.550 Y15.588 F800.000
G1 X34.975 Y15.644 F800.000
G1 X35.375 Y15.719 F800.000
G1 X35.944 Y15.912 F800.000
G1 X36.369 Y16.106 F800.000
G1 X36.775 Y16.369 F800.000
G1 X37.069 Y16.600 F800.000
G1 X37.381 Y16.913 F800.000
G1 X37.663 Y17.231 F800.000
G1 X37.987 Y17.712 F800.000
G1 X38.212 Y18.131 F800.000
G1 X38.406 Y18.581 F800.000
G1 X38.556 Y19.075 F800.000
G1 X38.656 Y19.556 F800.000
G1 X38.706 Y20.050 F800.000
G1 X38.706 Y20.550 F800.000
G1 X38.656 Y21.044 F800.000
G1 X38.538 Y21.525 F800.000
G1 X38.406 Y21.900 F800.000
G1 X38.231 Y22.325 F800.000
G1 X37.956 Y22.844 F800.000
G1 X37.625 Y23.350 F800.000
G1 X37.256 Y23.750 F800.000
G1 X36.975 Y24.019 F800.000
G1 X36.581 Y24.319 F800.000
G1 X36.194 Y24.581 F800.000
G1 X35.619 Y24.881 F800.000
G1 X35.131 Y25.081 F800.000
G1 X34.606 Y25.212 F800.000
G1 X34.194 Y25.281 F800.000
G1 X33.706 Y25.312 F800.000
G1 X33.231 Y25.325 F800.000
G1 X32.500 Y25.250 F800.000
G1 X31.969 Y25.125 F800.000
G1 X31.550 Y25.000 F800.000
G1 X31.044 Y24.781 F800.000
G1 X30.606 Y24.531 F800.000
G1 X30.200 Y24.256 F800.000
G1 X29.812 Y23.925 F800.000
G1 X29.462 Y23.562 F800.000
G1 X29.150 Y23.169 F800.000
G1 X28.875 Y22.744 F800.000
G1 X28.644 Y22.294 F800.000
G1 X28.456 Y21.825 F800.000
G1 X28.294 Y21.350 F800.000
G1 X28.163 Y20.719 F800.000
G1 X28.094 Y20.181 F800.000
G1 X28.094 Y19.625 F800.000
G1 X28.131 Y19.169 F800.000
G1 X28.225 Y18.663 F800.000
G1 X28.369 Y18.175 F800.000
G1 X28.550 Y17.719 F800.000
G1 X28.762 Y17.262 F800.000
G1 X29.100 Y16.712 F800.000
G1 X29.419 Y16.281 F800.000
G1 X29.781 Y15.863 F800.000
G1 X30.181 Y15.450 F800.000
G1 X30.744 Y14.981 F800.000
G1 X31.238 Y14.625 F800.000
G1 X31.800 Y14.338 F800.000
G1 X32.181 Y14.169 F800.000
G1 X32.694 Y14.006 F800.000
G1 X33.188 Y13.887 F800.000
G1 X33.812 Y13.800 F800.000
G1 X34.362 Y13.769 F800.000
G1 X34.919 Y13.787 F800.000
G1 X35.487 Y13.887 F800.000
G1 X35.913 Y13.994 F800.000
G1 X36.400 Y14.169 F800.000
G1 X36.862 Y14.363 F800.000
G1 X37.462 Y14.694 F800.000
G1 X37.925 Y15.006 F800.000
G1 X38.375 Y15.356 F800.000
G1 X38.812 Y15.769 F800.000
G1 X39.169 Y16.219 F800.000
G1 X39.419 Y16.575 F800.000
G1 X39.694 Y17.025 F800.000
G1 X39.969 Y17.644 F800.000
G1 X40.150 Y18.137 F800.000
G1 X40.306 Y18.688 F800.000
G1 X40.406 Y19.262 F800.000
G1 X40.456 Y19.819 F800.000
G1 X40.456 Y20.387 F800.000
G1 X40.406 Y20.956 F800.000
G1 X40.312 Y21.512 F800.000
G1 X40.169 Y22.069 F800.000
G1 X40.006 Y22.619 F800.000
G1 X39.725 Y23.312 F800.000
G1 X39.406 Y23.875 F800.000
G1 X39.131 Y24.269 F800.000
G1 X38.819 Y24.650 F800.000
G1 X38.462 Y25.044 F800.000
G1 X37.913 Y25.525 F800.000
G1 X37.456 Y25.869 F800.000
G1 X36.950 Y26.194 F800.000
G1 X36.394 Y26.481 F800.000
G1 X35.837 Y26.719 F800.000
G1 X35.263 Y26.913 F800.000
G1 X34.663 Y27.056 F800.000
G1 X34.062 Y27.150 F800.000
G1 X33.456 Y27.169 F800.000
G1 X32.981 Y27.150 F800.000
G1 X31.887 Y26.988 F800.000
G1 X31.163 Y26.788 F800.000
G1 X30.562 Y26.581 F800.000
G1 X29.969 Y26.275 F800.000
G1 X29.581 Y26.044 F800.000
G1 X29.131 Y25.712 F800.000
G1 X28.712 Y25.369 F800.000
G1 X28.188 Y24.850 F800.000
G1 X27.794 Y24.394 F800.000
G1 X27.425 Y23.900 F800.000
G1 X27.081 Y23.350 F800.000
G1 X26.825 Y22.781 F800.000
